luts/PixelFenda_ChromeIce.cube
TITLE "PixelFenda_ChromeIce"
LUT_3D_SIZE 17
DOMAIN_MIN 0.0 0.0 0.0
DOMAIN_MAX 1.0 1.0 1.0
0.050000 0.050000 0.050000
0.078600 0.066412 0.068038
0.107200 0.082825 0.086075
0.135800 0.099238 0.104113
0.164400 0.115650 0.122150
0.193000 0.132063 0.140188
0.221600 0.148475 0.158225
0.250200 0.164888 0.176263
0.278800 0.181300 0.194300
0.307400 0.197713 0.212338
0.336000 0.214125 0.230375
0.364600 0.230538 0.248413
0.393200 0.246950 0.266450
0.421800 0.263362 0.284488
0.450400 0.279775 0.302525
0.479000 0.296187 0.320563
0.507600 0.312600 0.338600
0.064950 0.080063 0.068038
0.093550 0.096475 0.086075
0.122150 0.112888 0.104113
0.150750 0.129300 0.122150
0.179350 0.145713 0.140188
0.207950 0.162125 0.158225
0.236550 0.178538 0.176263
0.265150 0.194950 0.194300
0.293750 0.211363 0.212338
0.322350 0.227775 0.230375
0.350950 0.244188 0.248413
0.379550 0.260600 0.266450
0.408150 0.277012 0.284488
0.436750 0.293425 0.302525
0.465350 0.309837 0.320563
0.493950 0.326250 0.338600
0.522550 0.342663 0.356638
0.079900 0.110125 0.086075
0.108500 0.126538 0.104113
0.137100 0.142950 0.122150
0.165700 0.159363 0.140188
0.194300 0.175775 0.158225
0.222900 0.192188 0.176263
0.251500 0.208600 0.194300
0.280100 0.225013 0.212338
0.308700 0.241425 0.230375
0.337300 0.257837 0.248413
0.365900 0.274250 0.266450
0.394500 0.290662 0.284488
0.423100 0.307075 0.302525
0.451700 0.323487 0.320563
0.480300 0.339900 0.338600
0.508900 0.356312 0.356638
0.537500 0.372725 0.374675
0.094850 0.140188 0.104113
0.123450 0.156600 0.122150
0.152050 0.173013 0.140188
0.180650 0.189425 0.158225
0.209250 0.205838 0.176263
0.237850 0.222250 0.194300
0.266450 0.238662 0.212338
0.295050 0.255075 0.230375
0.323650 0.271487 0.248413
0.352250 0.287900 0.266450
0.380850 0.304312 0.284488
0.409450 0.320725 0.302525
0.438050 0.337137 0.320563
0.466650 0.353550 0.338600
0.495250 0.369963 0.356638
0.523850 0.386375 0.374675
0.552450 0.402787 0.392713
0.109800 0.170250 0.122150
0.138400 0.186663 0.140188
0.167000 0.203075 0.158225
0.195600 0.219488 0.176263
0.224200 0.235900 0.194300
0.252800 0.252313 0.212338
0.281400 0.268725 0.230375
0.310000 0.285137 0.248413
0.338600 0.301550 0.266450
0.367200 0.317962 0.284488
0.395800 0.334375 0.302525
0.424400 0.350787 0.320563
0.453000 0.367200 0.338600
0.481600 0.383613 0.356638
0.510200 0.400025 0.374675
0.538800 0.416438 0.392713
0.567400 0.432850 0.410750
0.124750 0.200313 0.140188
0.153350 0.216725 0.158225
0.181950 0.233137 0.176263
0.210550 0.249550 0.194300
0.239150 0.265963 0.212338
0.267750 0.282375 0.230375
0.296350 0.298788 0.248413
0.324950 0.315200 0.266450
0.353550 0.331612 0.284488
0.382150 0.348025 0.302525
0.410750 0.364438 0.320563
0.439350 0.380850 0.338600
0.467950 0.397263 0.356638
0.496550 0.413675 0.374675
0.525150 0.430088 0.392713
0.553750 0.446500 0.410750
0.582350 0.462913 0.428788
0.139700 0.230375 0.158225
0.168300 0.246788 0.176263
0.196900 0.263200 0.194300
0.225500 0.279613 0.212338
0.254100 0.296025 0.230375
0.282700 0.312437 0.248413
0.311300 0.328850 0.266450
0.339900 0.345262 0.284488
0.368500 0.361675 0.302525
0.397100 0.378088 0.320563
0.425700 0.394500 0.338600
0.454300 0.410913 0.356638
0.482900 0.427325 0.374675
0.511500 0.443738 0.392713
0.540100 0.460150 0.410750
0.568700 0.476562 0.428788
0.597300 0.492975 0.446825
0.154650 0.260438 0.176263
0.183250 0.276850 0.194300
0.211850 0.293263 0.212338
0.240450 0.309675 0.230375
0.269050 0.326087 0.248413
0.297650 0.342500 0.266450
0.326250 0.358912 0.284488
0.354850 0.375325 0.302525
0.383450 0.391738 0.320563
0.412050 0.408150 0.338600
0.440650 0.424563 0.356638
0.469250 0.440975 0.374675
0.497850 0.457388 0.392713
0.526450 0.473800 0.410750
0.555050 0.490213 0.428788
0.583650 0.506625 0.446825
0.612250 0.523038 0.464863
0.169600 0.290500 0.194300
0.198200 0.306913 0.212338
0.226800 0.323325 0.230375
0.255400 0.339738 0.248413
0.284000 0.356150 0.266450
0.312600 0.372562 0.284488
0.341200 0.388975 0.302525
0.369800 0.405388 0.320563
0.398400 0.421800 0.338600
0.427000 0.438213 0.356638
0.455600 0.454625 0.374675
0.484200 0.471037 0.392713
0.512800 0.487450 0.410750
0.541400 0.503863 0.428788
0.570000 0.520275 0.446825
0.598600 0.536688 0.464863
0.627200 0.553100 0.482900
0.184550 0.320563 0.212338
0.213150 0.336975 0.230375
0.241750 0.353388 0.248413
0.270350 0.369800 0.266450
0.298950 0.386213 0.284488
0.327550 0.402625 0.302525
0.356150 0.419038 0.320563
0.384750 0.435450 0.338600
0.413350 0.451863 0.356638
0.441950 0.468275 0.374675
0.470550 0.484688 0.392713
0.499150 0.501100 0.410750
0.527750 0.517513 0.428788
0.556350 0.533925 0.446825
0.584950 0.550338 0.464863
0.613550 0.566750 0.482900
0.642150 0.583163 0.500938
0.199500 0.350625 0.230375
0.228100 0.367038 0.248413
0.256700 0.383450 0.266450
0.285300 0.399862 0.284488
0.313900 0.416275 0.302525
0.342500 0.432688 0.320563
0.371100 0.449100 0.338600
0.399700 0.465512 0.356638
0.428300 0.481925 0.374675
0.456900 0.498338 0.392713
0.485500 0.514750 0.410750
0.514100 0.531163 0.428788
0.542700 0.547575 0.446825
0.571300 0.563988 0.464863
0.599900 0.580400 0.482900
0.628500 0.596813 0.500938
0.657100 0.613225 0.518975
0.214450 0.380688 0.248413
0.243050 0.397100 0.266450
0.271650 0.413512 0.284488
0.300250 0.429925 0.302525
0.328850 0.446337 0.320563
0.357450 0.462750 0.338600
0.386050 0.479163 0.356638
0.414650 0.495575 0.374675
0.443250 0.511988 0.392713
0.471850 0.528400 0.410750
0.500450 0.544813 0.428788
0.529050 0.561225 0.446825
0.557650 0.577638 0.464863
0.586250 0.594050 0.482900
0.614850 0.610463 0.500938
0.643450 0.626875 0.518975
0.672050 0.643288 0.537013
0.229400 0.410750 0.266450
0.258000 0.427163 0.284488
0.286600 0.443575 0.302525
0.315200 0.459987 0.320563
0.343800 0.476400 0.338600
0.372400 0.492813 0.356638
0.401000 0.509225 0.374675
0.429600 0.525638 0.392713
0.458200 0.542050 0.410750
0.486800 0.558463 0.428788
0.515400 0.574875 0.446825
0.544000 0.591288 0.464863
0.572600 0.607700 0.482900
0.601200 0.624113 0.500938
0.629800 0.640525 0.518975
0.658400 0.656938 0.537013
0.687000 0.673350 0.555050
0.244350 0.440812 0.284488
0.272950 0.457225 0.302525
0.301550 0.473638 0.320563
0.330150 0.490050 0.338600
0.358750 0.506463 0.356638
0.387350 0.522875 0.374675
0.415950 0.539288 0.392713
0.444550 0.555700 0.410750
0.473150 0.572113 0.428788
0.501750 0.588525 0.446825
0.530350 0.604938 0.464863
0.558950 0.621350 0.482900
0.587550 0.637763 0.500938
0.616150 0.654175 0.518975
0.644750 0.670588 0.537013
0.673350 0.687000 0.555050
0.701950 0.703413 0.573088
0.259300 0.470875 0.302525
0.287900 0.487288 0.320563
0.316500 0.503700 0.338600
0.345100 0.520113 0.356638
0.373700 0.536525 0.374675
0.402300 0.552938 0.392713
0.430900 0.569350 0.410750
0.459500 0.585763 0.428788
0.488100 0.602175 0.446825
0.516700 0.618588 0.464863
0.545300 0.635000 0.482900
0.573900 0.651413 0.500938
0.602500 0.667825 0.518975
0.631100 0.684238 0.537013
0.659700 0.700650 0.555050
0.688300 0.717063 0.573088
0.716900 0.733475 0.591125
0.274250 0.500938 0.320563
0.302850 0.517350 0.338600
0.331450 0.533763 0.356638
0.360050 0.550175 0.374675
0.388650 0.566588 0.392713
0.417250 0.583000 0.410750
0.445850 0.599413 0.428788
0.474450 0.615825 0.446825
0.503050 0.632238 0.464863
0.531650 0.648650 0.482900
0.560250 0.665063 0.500938
0.588850 0.681475 0.518975
0.617450 0.697887 0.537013
0.646050 0.714300 0.555050
0.674650 0.730713 0.573088
0.703250 0.747125 0.591125
0.731850 0.763538 0.609163
0.289200 0.531000 0.338600
0.317800 0.547413 0.356638
0.346400 0.563825 0.374675
0.375000 0.580238 0.392713
0.403600 0.596650 0.410750
0.432200 0.613063 0.428788
0.460800 0.629475 0.446825
0.489400 0.645888 0.464863
0.518000 0.662300 0.482900
0.546600 0.678713 0.500938
0.575200 0.695125 0.518975
0.603800 0.711538 0.537013
0.632400 0.727950 0.555050
0.661000 0.744363 0.573088
0.689600 0.760775 0.591125
0.718200 0.777188 0.609163
0.746800 0.793600 0.627200
0.064950 0.066412 0.081687
0.093550 0.082825 0.099725
0.122150 0.099238 0.117763
0.150750 0.115650 0.135800
0.179350 0.132063 0.153838
0.207950 0.148475 0.171875
0.236550 0.164888 0.189913
0.265150 0.181300 0.207950
0.293750 0.197713 0.225988
0.322350 0.214125 0.244025
0.350950 0.230538 0.262063
0.379550 0.246950 0.280100
0.408150 0.263362 0.298138
0.436750 0.279775 0.316175
0.465350 0.296187 0.334213
0.493950 0.312600 0.352250
0.522550 0.329012 0.370288
0.079900 0.096475 0.099725
0.108500 0.112888 0.117763
0.137100 0.129300 0.135800
0.165700 0.145713 0.153838
0.194300 0.162125 0.171875
0.222900 0.178538 0.189913
0.251500 0.194950 0.207950
0.280100 0.211363 0.225988
0.308700 0.227775 0.244025
0.337300 0.244188 0.262063
0.365900 0.260600 0.280100
0.394500 0.277012 0.298138
0.423100 0.293425 0.316175
0.451700 0.309837 0.334213
0.480300 0.326250 0.352250
0.508900 0.342663 0.370288
0.537500 0.359075 0.388325
0.094850 0.126538 0.117763
0.123450 0.142950 0.135800
0.152050 0.159363 0.153838
0.180650 0.175775 0.171875
0.209250 0.192188 0.189913
0.237850 0.208600 0.207950
0.266450 0.225013 0.225988
0.295050 0.241425 0.244025
0.323650 0.257837 0.262063
0.352250 0.274250 0.280100
0.380850 0.290662 0.298138
0.409450 0.307075 0.316175
0.438050 0.323487 0.334213
0.466650 0.339900 0.352250
0.495250 0.356312 0.370288
0.523850 0.372725 0.388325
0.552450 0.389138 0.406363
0.109800 0.156600 0.135800
0.138400 0.173013 0.153838
0.167000 0.189425 0.171875
0.195600 0.205838 0.189913
0.224200 0.222250 0.207950
0.252800 0.238662 0.225988
0.281400 0.255075 0.244025
0.310000 0.271487 0.262063
0.338600 0.287900 0.280100
0.367200 0.304312 0.298138
0.395800 0.320725 0.316175
0.424400 0.337137 0.334213
0.453000 0.353550 0.352250
0.481600 0.369963 0.370288
0.510200 0.386375 0.388325
0.538800 0.402787 0.406363
0.567400 0.419200 0.424400
0.124750 0.186663 0.153838
0.153350 0.203075 0.171875
0.181950 0.219488 0.189913
0.210550 0.235900 0.207950
0.239150 0.252313 0.225988
0.267750 0.268725 0.244025
0.296350 0.285137 0.262063
0.324950 0.301550 0.280100
0.353550 0.317962 0.298138
0.382150 0.334375 0.316175
0.410750 0.350787 0.334213
0.439350 0.367200 0.352250
0.467950 0.383613 0.370288
0.496550 0.400025 0.388325
0.525150 0.416438 0.406363
0.553750 0.432850 0.424400
0.582350 0.449263 0.442438
0.139700 0.216725 0.171875
0.168300 0.233137 0.189913
0.196900 0.249550 0.207950
0.225500 0.265963 0.225988
0.254100 0.282375 0.244025
0.282700 0.298788 0.262063
0.311300 0.315200 0.280100
0.339900 0.331612 0.298138
0.368500 0.348025 0.316175
0.397100 0.364438 0.334213
0.425700 0.380850 0.352250
0.454300 0.397263 0.370288
0.482900 0.413675 0.388325
0.511500 0.430088 0.406363
0.540100 0.446500 0.424400
0.568700 0.462913 0.442438
0.597300 0.479325 0.460475
0.154650 0.246788 0.189913
0.183250 0.263200 0.207950
0.211850 0.279613 0.225988
0.240450 0.296025 0.244025
0.269050 0.312437 0.262063
0.297650 0.328850 0.280100
0.326250 0.345262 0.298138
0.354850 0.361675 0.316175
0.383450 0.378088 0.334213
0.412050 0.394500 0.352250
0.440650 0.410913 0.370288
0.469250 0.427325 0.388325
0.497850 0.443738 0.406363
0.526450 0.460150 0.424400
0.555050 0.476562 0.442438
0.583650 0.492975 0.460475
0.612250 0.509388 0.478513
0.169600 0.276850 0.207950
0.198200 0.293263 0.225988
0.226800 0.309675 0.244025
0.255400 0.326087 0.262063
0.284000 0.342500 0.280100
0.312600 0.358912 0.298138
0.341200 0.375325 0.316175
0.369800 0.391738 0.334213
0.398400 0.408150 0.352250
0.427000 0.424563 0.370288
0.455600 0.440975 0.388325
0.484200 0.457388 0.406363
0.512800 0.473800 0.424400
0.541400 0.490213 0.442438
0.570000 0.506625 0.460475
0.598600 0.523038 0.478513
0.627200 0.539450 0.496550
0.184550 0.306913 0.225988
0.213150 0.323325 0.244025
0.241750 0.339738 0.262063
0.270350 0.356150 0.280100
0.298950 0.372562 0.298138
0.327550 0.388975 0.316175
0.356150 0.405388 0.334213
0.384750 0.421800 0.352250
0.413350 0.438213 0.370288
0.441950 0.454625 0.388325
0.470550 0.471037 0.406363
0.499150 0.487450 0.424400
0.527750 0.503863 0.442438
0.556350 0.520275 0.460475
0.584950 0.536688 0.478513
0.613550 0.553100 0.496550
0.642150 0.569513 0.514588
0.199500 0.336975 0.244025
0.228100 0.353388 0.262063
0.256700 0.369800 0.280100
0.285300 0.386213 0.298138
0.313900 0.402625 0.316175
0.342500 0.419038 0.334213
0.371100 0.435450 0.352250
0.399700 0.451863 0.370288
0.428300 0.468275 0.388325
0.456900 0.484688 0.406363
0.485500 0.501100 0.424400
0.514100 0.517513 0.442438
0.542700 0.533925 0.460475
0.571300 0.550338 0.478513
0.599900 0.566750 0.496550
0.628500 0.583163 0.514588
0.657100 0.599575 0.532625
0.214450 0.367038 0.262063
0.243050 0.383450 0.280100
0.271650 0.399862 0.298138
0.300250 0.416275 0.316175
0.328850 0.432688 0.334213
0.357450 0.449100 0.352250
0.386050 0.465512 0.370288
0.414650 0.481925 0.388325
0.443250 0.498338 0.406363
0.471850 0.514750 0.424400
0.500450 0.531163 0.442438
0.529050 0.547575 0.460475
0.557650 0.563988 0.478513
0.586250 0.580400 0.496550
0.614850 0.596813 0.514588
0.643450 0.613225 0.532625
0.672050 0.629638 0.550663
0.229400 0.397100 0.280100
0.258000 0.413512 0.298138
0.286600 0.429925 0.316175
0.315200 0.446337 0.334213
0.343800 0.462750 0.352250
0.372400 0.479163 0.370288
0.401000 0.495575 0.388325
0.429600 0.511988 0.406363
0.458200 0.528400 0.424400
0.486800 0.544813 0.442438
0.515400 0.561225 0.460475
0.544000 0.577638 0.478513
0.572600 0.594050 0.496550
0.601200 0.610463 0.514588
0.629800 0.626875 0.532625
0.658400 0.643288 0.550663
0.687000 0.659700 0.568700
0.244350 0.427163 0.298138
0.272950 0.443575 0.316175
0.301550 0.459987 0.334213
0.330150 0.476400 0.352250
0.358750 0.492813 0.370288
0.387350 0.509225 0.388325
0.415950 0.525638 0.406363
0.444550 0.542050 0.424400
0.473150 0.558463 0.442438
0.501750 0.574875 0.460475
0.530350 0.591288 0.478513
0.558950 0.607700 0.496550
0.587550 0.624113 0.514588
0.616150 0.640525 0.532625
0.644750 0.656938 0.550663
0.673350 0.673350 0.568700
0.701950 0.689763 0.586738
0.259300 0.457225 0.316175
0.287900 0.473638 0.334213
0.316500 0.490050 0.352250
0.345100 0.506463 0.370288
0.373700 0.522875 0.388325
0.402300 0.539288 0.406363
0.430900 0.555700 0.424400
0.459500 0.572113 0.442438
0.488100 0.588525 0.460475
0.516700 0.604938 0.478513
0.545300 0.621350 0.496550
0.573900 0.637763 0.514588
0.602500 0.654175 0.532625
0.631100 0.670588 0.550663
0.659700 0.687000 0.568700
0.688300 0.703413 0.586738
0.716900 0.719825 0.604775
0.274250 0.487288 0.334213
0.302850 0.503700 0.352250
0.331450 0.520113 0.370288
0.360050 0.536525 0.388325
0.388650 0.552938 0.406363
0.417250 0.569350 0.424400
0.445850 0.585763 0.442438
0.474450 0.602175 0.460475
0.503050 0.618588 0.478513
0.531650 0.635000 0.496550
0.560250 0.651413 0.514588
0.588850 0.667825 0.532625
0.617450 0.684238 0.550663
0.646050 0.700650 0.568700
0.674650 0.717063 0.586738
0.703250 0.733475 0.604775
0.731850 0.749888 0.622813
0.289200 0.517350 0.352250
0.317800 0.533763 0.370288
0.346400 0.550175 0.388325
0.375000 0.566588 0.406363
0.403600 0.583000 0.424400
0.432200 0.599413 0.442438
0.460800 0.615825 0.460475
0.489400 0.632238 0.478513
0.518000 0.648650 0.496550
0.546600 0.665063 0.514588
0.575200 0.681475 0.532625
0.603800 0.697887 0.550663
0.632400 0.714300 0.568700
0.661000 0.730713 0.586738
0.689600 0.747125 0.604775
0.718200 0.763538 0.622813
0.746800 0.779950 0.640850
0.304150 0.547413 0.370288
0.332750 0.563825 0.388325
0.361350 0.580238 0.406363
0.389950 0.596650 0.424400
0.418550 0.613063 0.442438
0.447150 0.629475 0.460475
0.475750 0.645888 0.478513
0.504350 0.662300 0.496550
0.532950 0.678713 0.514588
0.561550 0.695125 0.532625
0.590150 0.711538 0.550663
0.618750 0.727950 0.568700
0.647350 0.744363 0.586738
0.675950 0.760775 0.604775
0.704550 0.777188 0.622813
0.733150 0.793600 0.640850
0.761750 0.810013 0.658888
0.079900 0.082825 0.113375
0.108500 0.099238 0.131413
0.137100 0.115650 0.149450
0.165700 0.132063 0.167488
0.194300 0.148475 0.185525
0.222900 0.164888 0.203563
0.251500 0.181300 0.221600
0.280100 0.197713 0.239638
0.308700 0.214125 0.257675
0.337300 0.230538 0.275713
0.365900 0.246950 0.293750
0.394500 0.263362 0.311788
0.423100 0.279775 0.329825
0.451700 0.296187 0.347863
0.480300 0.312600 0.365900
0.508900 0.329012 0.383938
0.537500 0.345425 0.401975
0.094850 0.112888 0.131413
0.123450 0.129300 0.149450
0.152050 0.145713 0.167488
0.180650 0.162125 0.185525
0.209250 0.178538 0.203563
0.237850 0.194950 0.221600
0.266450 0.211363 0.239638
0.295050 0.227775 0.257675
0.323650 0.244188 0.275713
0.352250 0.260600 0.293750
0.380850 0.277012 0.311788
0.409450 0.293425 0.329825
0.438050 0.309837 0.347863
0.466650 0.326250 0.365900
0.495250 0.342663 0.383938
0.523850 0.359075 0.401975
0.552450 0.375488 0.420013
0.109800 0.142950 0.149450
0.138400 0.159363 0.167488
0.167000 0.175775 0.185525
0.195600 0.192188 0.203563
0.224200 0.208600 0.221600
0.252800 0.225013 0.239638
0.281400 0.241425 0.257675
0.310000 0.257837 0.275713
0.338600 0.274250 0.293750
0.367200 0.290662 0.311788
0.395800 0.307075 0.329825
0.424400 0.323487 0.347863
0.453000 0.339900 0.365900
0.481600 0.356312 0.383938
0.510200 0.372725 0.401975
0.538800 0.389138 0.420013
0.567400 0.405550 0.438050
0.124750 0.173013 0.167488
0.153350 0.189425 0.185525
0.181950 0.205838 0.203563
0.210550 0.222250 0.221600
0.239150 0.238662 0.239638
0.267750 0.255075 0.257675
0.296350 0.271487 0.275713
0.324950 0.287900 0.293750
0.353550 0.304312 0.311788
0.382150 0.320725 0.329825
0.410750 0.337137 0.347863
0.439350 0.353550 0.365900
0.467950 0.369963 0.383938
0.496550 0.386375 0.401975
0.525150 0.402787 0.420013
0.553750 0.419200 0.438050
0.582350 0.435613 0.456087
0.139700 0.203075 0.185525
0.168300 0.219488 0.203563
0.196900 0.235900 0.221600
0.225500 0.252313 0.239638
0.254100 0.268725 0.257675
0.282700 0.285137 0.275713
0.311300 0.301550 0.293750
0.339900 0.317962 0.311788
0.368500 0.334375 0.329825
0.397100 0.350787 0.347863
0.425700 0.367200 0.365900
0.454300 0.383613 0.383938
0.482900 0.400025 0.401975
0.511500 0.416438 0.420013
0.540100 0.432850 0.438050
0.568700 0.449263 0.456087
0.597300 0.465675 0.474125
0.154650 0.233137 0.203563
0.183250 0.249550 0.221600
0.211850 0.265963 0.239638
0.240450 0.282375 0.257675
0.269050 0.298788 0.275713
0.297650 0.315200 0.293750
0.326250 0.331612 0.311788
0.354850 0.348025 0.329825
0.383450 0.364438 0.347863
0.412050 0.380850 0.365900
0.440650 0.397263 0.383938
0.469250 0.413675 0.401975
0.497850 0.430088 0.420013
0.526450 0.446500 0.438050
0.555050 0.462913 0.456087
0.583650 0.479325 0.474125
0.612250 0.495738 0.492163
0.169600 0.263200 0.221600
0.198200 0.279613 0.239638
0.226800 0.296025 0.257675
0.255400 0.312437 0.275713
0.284000 0.328850 0.293750
0.312600 0.345262 0.311788
0.341200 0.361675 0.329825
0.369800 0.378088 0.347863
0.398400 0.394500 0.365900
0.427000 0.410913 0.383938
0.455600 0.427325 0.401975
0.484200 0.443738 0.420013
0.512800 0.460150 0.438050
0.541400 0.476562 0.456087
0.570000 0.492975 0.474125
0.598600 0.509388 0.492163
0.627200 0.525800 0.510200
0.184550 0.293263 0.239638
0.213150 0.309675 0.257675
0.241750 0.326087 0.275713
0.270350 0.342500 0.293750
0.298950 0.358912 0.311788
0.327550 0.375325 0.329825
0.356150 0.391738 0.347863
0.384750 0.408150 0.365900
0.413350 0.424563 0.383938
0.441950 0.440975 0.401975
0.470550 0.457388 0.420013
0.499150 0.473800 0.438050
0.527750 0.490213 0.456087
0.556350 0.506625 0.474125
0.584950 0.523038 0.492163
0.613550 0.539450 0.510200
0.642150 0.555863 0.528238
0.199500 0.323325 0.257675
0.228100 0.339738 0.275713
0.256700 0.356150 0.293750
0.285300 0.372562 0.311788
0.313900 0.388975 0.329825
0.342500 0.405388 0.347863
0.371100 0.421800 0.365900
0.399700 0.438213 0.383938
0.428300 0.454625 0.401975
0.456900 0.471037 0.420013
0.485500 0.487450 0.438050
0.514100 0.503863 0.456087
0.542700 0.520275 0.474125
0.571300 0.536688 0.492163
0.599900 0.553100 0.510200
0.628500 0.569513 0.528238
0.657100 0.585925 0.546275
0.214450 0.353388 0.275713
0.243050 0.369800 0.293750
0.271650 0.386213 0.311788
0.300250 0.402625 0.329825
0.328850 0.419038 0.347863
0.357450 0.435450 0.365900
0.386050 0.451863 0.383938
0.414650 0.468275 0.401975
0.443250 0.484688 0.420013
0.471850 0.501100 0.438050
0.500450 0.517513 0.456087
0.529050 0.533925 0.474125
0.557650 0.550338 0.492163
0.586250 0.566750 0.510200
0.614850 0.583163 0.528238
0.643450 0.599575 0.546275
0.672050 0.615988 0.564313
0.229400 0.383450 0.293750
0.258000 0.399862 0.311788
0.286600 0.416275 0.329825
0.315200 0.432688 0.347863
0.343800 0.449100 0.365900
0.372400 0.465512 0.383938
0.401000 0.481925 0.401975
0.429600 0.498338 0.420013
0.458200 0.514750 0.438050
0.486800 0.531163 0.456087
0.515400 0.547575 0.474125
0.544000 0.563988 0.492163
0.572600 0.580400 0.510200
0.601200 0.596813 0.528238
0.629800 0.613225 0.546275
0.658400 0.629638 0.564313
0.687000 0.646050 0.582350
0.244350 0.413512 0.311788
0.272950 0.429925 0.329825
0.301550 0.446337 0.347863
0.330150 0.462750 0.365900
0.358750 0.479163 0.383938
0.387350 0.495575 0.401975
0.415950 0.511988 0.420013
0.444550 0.528400 0.438050
0.473150 0.544813 0.456087
0.501750 0.561225 0.474125
0.530350 0.577638 0.492163
0.558950 0.594050 0.510200
0.587550 0.610463 0.528238
0.616150 0.626875 0.546275
0.644750 0.643288 0.564313
0.673350 0.659700 0.582350
0.701950 0.676113 0.600388
0.259300 0.443575 0.329825
0.287900 0.459987 0.347863
0.316500 0.476400 0.365900
0.345100 0.492813 0.383938
0.373700 0.509225 0.401975
0.402300 0.525638 0.420013
0.430900 0.542050 0.438050
0.459500 0.558463 0.456087
0.488100 0.574875 0.474125
0.516700 0.591288 0.492163
0.545300 0.607700 0.510200
0.573900 0.624113 0.528238
0.602500 0.640525 0.546275
0.631100 0.656938 0.564313
0.659700 0.673350 0.582350
0.688300 0.689763 0.600388
0.716900 0.706175 0.618425
0.274250 0.473638 0.347863
0.302850 0.490050 0.365900
0.331450 0.506463 0.383938
0.360050 0.522875 0.401975
0.388650 0.539288 0.420013
0.417250 0.555700 0.438050
0.445850 0.572113 0.456087
0.474450 0.588525 0.474125
0.503050 0.604938 0.492163
0.531650 0.621350 0.510200
0.560250 0.637763 0.528238
0.588850 0.654175 0.546275
0.617450 0.670588 0.564313
0.646050 0.687000 0.582350
0.674650 0.703413 0.600388
0.703250 0.719825 0.618425
0.731850 0.736238 0.636463
0.289200 0.503700 0.365900
0.317800 0.520113 0.383938
0.346400 0.536525 0.401975
0.375000 0.552938 0.420013
0.403600 0.569350 0.438050
0.432200 0.585763 0.456087
0.460800 0.602175 0.474125
0.489400 0.618588 0.492163
0.518000 0.635000 0.510200
0.546600 0.651413 0.528238
0.575200 0.667825 0.546275
0.603800 0.684238 0.564313
0.632400 0.700650 0.582350
0.661000 0.717063 0.600388
0.689600 0.733475 0.618425
0.718200 0.749888 0.636463
0.746800 0.766300 0.654500
0.304150 0.533763 0.383938
0.332750 0.550175 0.401975
0.361350 0.566588 0.420013
0.389950 0.583000 0.438050
0.418550 0.599413 0.456087
0.447150 0.615825 0.474125
0.475750 0.632238 0.492163
0.504350 0.648650 0.510200
0.532950 0.665063 0.528238
0.561550 0.681475 0.546275
0.590150 0.697887 0.564313
0.618750 0.714300 0.582350
0.647350 0.730713 0.600388
0.675950 0.747125 0.618425
0.704550 0.763538 0.636463
0.733150 0.779950 0.654500
0.761750 0.796362 0.672538
0.319100 0.563825 0.401975
0.347700 0.580238 0.420013
0.376300 0.596650 0.438050
0.404900 0.613063 0.456087
0.433500 0.629475 0.474125
0.462100 0.645888 0.492163
0.490700 0.662300 0.510200
0.519300 0.678713 0.528238
0.547900 0.695125 0.546275
0.576500 0.711538 0.564313
0.605100 0.727950 0.582350
0.633700 0.744363 0.600388
0.662300 0.760775 0.618425
0.690900 0.777188 0.636463
0.719500 0.793600 0.654500
0.748100 0.810013 0.672538
0.776700 0.826425 0.690575
0.094850 0.099238 0.145063
0.123450 0.115650 0.163100
0.152050 0.132063 0.181138
0.180650 0.148475 0.199175
0.209250 0.164888 0.217213
0.237850 0.181300 0.235250
0.266450 0.197713 0.253287
0.295050 0.214125 0.271325
0.323650 0.230538 0.289363
0.352250 0.246950 0.307400
0.380850 0.263362 0.325437
0.409450 0.279775 0.343475
0.438050 0.296187 0.361513
0.466650 0.312600 0.379550
0.495250 0.329012 0.397588
0.523850 0.345425 0.415625
0.552450 0.361837 0.433663
0.109800 0.129300 0.163100
