luts/PixelFenda_ChromeIce.cube
TITLE "PixelFenda_ChromeIce"
LUT_3D_SIZE 5
DOMAIN_MIN 0.0 0.0 0.0
DOMAIN_MAX 1.0 1.0 1.0
0.050000 0.050000 0.050000
0.164400 0.115650 0.122150
0.278800 0.181300 0.194300
0.393200 0.246950 0.266450
0.507600 0.312600 0.338600
0.109800 0.170250 0.122150
0.224200 0.235900 0.194300
0.338600 0.301550 0.266450
0.453000 0.367200 0.338600
0.567400 0.432850 0.410750
0.169600 0.290500 0.194300
0.284000 0.356150 0.266450
0.398400 0.421800 0.338600
0.512800 0.487450 0.410750
0.627200 0.553100 0.482900
0.229400 0.410750 0.266450
0.343800 0.476400 0.338600
0.458200 0.542050 0.410750
0.572600 0.607700 0.482900
0.687000 0.673350 0.555050
0.289200 0.531000 0.338600
0.403600 0.596650 0.410750
0.518000 0.662300 0.482900
0.632400 0.727950 0.555050
0.746800 0.793600 0.627200
0.109800 0.115650 0.176750
0.224200 0.181300 0.248900
0.338600 0.246950 0.321050
0.453000 0.312600 0.393200
0.567400 0.378250 0.465350
0.169600 0.235900 0.248900
0.284000 0.301550 0.321050
0.398400 0.367200 0.393200
0.512800 0.432850 0.465350
0.627200 0.498500 0.537500
0.229400 0.356150 0.321050
0.343800 0.421800 0.393200
0.458200 0.487450 0.465350
0.572600 0.553100 0.537500
0.687000 0.618750 0.609650
0.289200 0.476400 0.393200
0.403600 0.542050 0.465350
0.518000 0.607700 0.537500
0.632400 0.673350 0.609650
0.746800 0.739000 0.681800
0.349000 0.596650 0.465350
0.463400 0.662300 0.537500
0.577800 0.727950 0.609650
0.692200 0.793600 0.681800
0.806600 0.859250 0.753950
0.169600 0.181300 0.303500
0.284000 0.246950 0.375650
0.398400 0.312600 0.447800
0.512800 0.378250 0.519950
0.627200 0.443900 0.592100
0.229400 0.301550 0.375650
0.343800 0.367200 0.447800
0.458200 0.432850 0.519950
0.572600 0.498500 0.592100
0.687000 0.564150 0.664250
0.289200 0.421800 0.447800
0.403600 0.487450 0.519950
0.518000 0.553100 0.592100
0.632400 0.618750 0.664250
0.746800 0.684400 0.736400
0.349000 0.542050 0.519950
0.463400 0.607700 0.592100
0.577800 0.673350 0.664250
0.692200 0.739000 0.736400
0.806600 0.804650 0.808550
0.408800 0.662300 0.592100
0.523200 0.727950 0.664250
0.637600 0.793600 0.736400
0.752000 0.859250 0.808550
0.866400 0.924900 0.880700
0.229400 0.246950 0.430250
0.343800 0.312600 0.502400
0.458200 0.378250 0.574550
0.572600 0.443900 0.646700
0.687000 0.509550 0.718850
0.289200 0.367200 0.502400
0.403600 0.432850 0.574550
0.518000 0.498500 0.646700
0.632400 0.564150 0.718850
0.746800 0.629800 0.791000
0.349000 0.487450 0.574550
0.463400 0.553100 0.646700
0.577800 0.618750 0.718850
0.692200 0.684400 0.791000
0.806600 0.750050 0.863150
0.408800 0.607700 0.646700
0.523200 0.673350 0.718850
0.637600 0.739000 0.791000
0.752000 0.804650 0.863150
0.866400 0.870300 0.935300
0.468600 0.727950 0.718850
0.583000 0.793600 0.791000
0.697400 0.859250 0.863150
0.811800 0.924900 0.935300
0.926200 0.990550 1.000000
0.289200 0.312600 0.557000
0.403600 0.378250 0.629150
0.518000 0.443900 0.701300
0.632400 0.509550 0.773450
0.746800 0.575200 0.845600
0.349000 0.432850 0.629150
0.463400 0.498500 0.701300
0.577800 0.564150 0.773450
0.692200 0.629800 0.845600
0.806600 0.695450 0.917750
0.408800 0.553100 0.701300
0.523200 0.618750 0.773450
0.637600 0.684400 0.845600
0.752000 0.750050 0.917750
0.866400 0.815700 0.989900
0.468600 0.673350 0.773450
0.583000 0.739000 0.845600
0.697400 0.804650 0.917750
0.811800 0.870300 0.989900
0.926200 0.935950 1.000000
0.528400 0.793600 0.845600
0.642800 0.859250 0.917750
0.757200 0.924900 0.989900
0.871600 0.990550 1.000000
0.986000 1.000000 1.000000
