luts/PixelFenda_CobaltNoir.cube
TITLE "PixelFenda_CobaltNoir"
LUT_3D_SIZE 17
DOMAIN_MIN 0.0 0.0 0.0
DOMAIN_MAX 1.0 1.0 1.0
0.000000 0.000000 0.117600
0.039420 0.000000 0.117600
0.081620 0.000000 0.117600
0.124937 0.000000 0.117600
0.168996 0.000000 0.117600
0.213616 0.000000 0.117600
0.258686 0.000000 0.117600
0.304136 0.000000 0.117600
0.349912 0.000000 0.117600
0.395976 0.000000 0.117600
0.442297 0.000000 0.117600
0.488851 0.000000 0.117600
0.535617 0.000000 0.117600
0.582579 0.000000 0.117600
0.629722 0.000000 0.117600
0.677034 0.000000 0.117600
0.724503 0.000000 0.117600
0.000000 0.045942 0.121275
0.039420 0.045942 0.121275
0.081620 0.045942 0.121275
0.124937 0.045942 0.121275
0.168996 0.045942 0.121275
0.213616 0.045942 0.121275
0.258686 0.045942 0.121275
0.304136 0.045942 0.121275
0.349912 0.045942 0.121275
0.395976 0.045942 0.121275
0.442297 0.045942 0.121275
0.488851 0.045942 0.121275
0.535617 0.045942 0.121275
0.582579 0.045942 0.121275
0.629722 0.045942 0.121275
0.677034 0.045942 0.121275
0.724503 0.045942 0.121275
0.000000 0.093815 0.124950
0.039420 0.093815 0.124950
0.081620 0.093815 0.124950
0.124937 0.093815 0.124950
0.168996 0.093815 0.124950
0.213616 0.093815 0.124950
0.258686 0.093815 0.124950
0.304136 0.093815 0.124950
0.349912 0.093815 0.124950
0.395976 0.093815 0.124950
0.442297 0.093815 0.124950
0.488851 0.093815 0.124950
0.535617 0.093815 0.124950
0.582579 0.093815 0.124950
0.629722 0.093815 0.124950
0.677034 0.093815 0.124950
0.724503 0.093815 0.124950
0.000000 0.142444 0.128625
0.039420 0.142444 0.128625
0.081620 0.142444 0.128625
0.124937 0.142444 0.128625
0.168996 0.142444 0.128625
0.213616 0.142444 0.128625
0.258686 0.142444 0.128625
0.304136 0.142444 0.128625
0.349912 0.142444 0.128625
0.395976 0.142444 0.128625
0.442297 0.142444 0.128625
0.488851 0.142444 0.128625
0.535617 0.142444 0.128625
0.582579 0.142444 0.128625
0.629722 0.142444 0.128625
0.677034 0.142444 0.128625
0.724503 0.142444 0.128625
0.000000 0.191572 0.132300
0.039420 0.191572 0.132300
0.081620 0.191572 0.132300
0.124937 0.191572 0.132300
0.168996 0.191572 0.132300
0.213616 0.191572 0.132300
0.258686 0.191572 0.132300
0.304136 0.191572 0.132300
0.349912 0.191572 0.132300
0.395976 0.191572 0.132300
0.442297 0.191572 0.132300
0.488851 0.191572 0.132300
0.535617 0.191572 0.132300
0.582579 0.191572 0.132300
0.629722 0.191572 0.132300
0.677034 0.191572 0.132300
0.724503 0.191572 0.132300
0.000000 0.241074 0.135975
0.039420 0.241074 0.135975
0.081620 0.241074 0.135975
0.124937 0.241074 0.135975
0.168996 0.241074 0.135975
0.213616 0.241074 0.135975
0.258686 0.241074 0.135975
0.304136 0.241074 0.135975
0.349912 0.241074 0.135975
0.395976 0.241074 0.135975
0.442297 0.241074 0.135975
0.488851 0.241074 0.135975
0.535617 0.241074 0.135975
0.582579 0.241074 0.135975
0.629722 0.241074 0.135975
0.677034 0.241074 0.135975
0.724503 0.241074 0.135975
0.000000 0.290875 0.139650
0.039420 0.290875 0.139650
0.081620 0.290875 0.139650
0.124937 0.290875 0.139650
0.168996 0.290875 0.139650
0.213616 0.290875 0.139650
0.258686 0.290875 0.139650
0.304136 0.290875 0.139650
0.349912 0.290875 0.139650
0.395976 0.290875 0.139650
0.442297 0.290875 0.139650
0.488851 0.290875 0.139650
0.535617 0.290875 0.139650
0.582579 0.290875 0.139650
0.629722 0.290875 0.139650
0.677034 0.290875 0.139650
0.724503 0.290875 0.139650
0.000000 0.340927 0.143325
0.039420 0.340927 0.143325
0.081620 0.340927 0.143325
0.124937 0.340927 0.143325
0.168996 0.340927 0.143325
0.213616 0.340927 0.143325
0.258686 0.340927 0.143325
0.304136 0.340927 0.143325
0.349912 0.340927 0.143325
0.395976 0.340927 0.143325
0.442297 0.340927 0.143325
0.488851 0.340927 0.143325
0.535617 0.340927 0.143325
0.582579 0.340927 0.143325
0.629722 0.340927 0.143325
0.677034 0.340927 0.143325
0.724503 0.340927 0.143325
0.000000 0.391195 0.147000
0.039420 0.391195 0.147000
0.081620 0.391195 0.147000
0.124937 0.391195 0.147000
0.168996 0.391195 0.147000
0.213616 0.391195 0.147000
0.258686 0.391195 0.147000
0.304136 0.391195 0.147000
0.349912 0.391195 0.147000
0.395976 0.391195 0.147000
0.442297 0.391195 0.147000
0.488851 0.391195 0.147000
0.535617 0.391195 0.147000
0.582579 0.391195 0.147000
0.629722 0.391195 0.147000
0.677034 0.391195 0.147000
0.724503 0.391195 0.147000
0.000000 0.441652 0.150675
0.039420 0.441652 0.150675
0.081620 0.441652 0.150675
0.124937 0.441652 0.150675
0.168996 0.441652 0.150675
0.213616 0.441652 0.150675
0.258686 0.441652 0.150675
0.304136 0.441652 0.150675
0.349912 0.441652 0.150675
0.395976 0.441652 0.150675
0.442297 0.441652 0.150675
0.488851 0.441652 0.150675
0.535617 0.441652 0.150675
0.582579 0.441652 0.150675
0.629722 0.441652 0.150675
0.677034 0.441652 0.150675
0.724503 0.441652 0.150675
0.000000 0.492278 0.154350
0.039420 0.492278 0.154350
0.081620 0.492278 0.154350
0.124937 0.492278 0.154350
0.168996 0.492278 0.154350
0.213616 0.492278 0.154350
0.258686 0.492278 0.154350
0.304136 0.492278 0.154350
0.349912 0.492278 0.154350
0.395976 0.492278 0.154350
0.442297 0.492278 0.154350
0.488851 0.492278 0.154350
0.535617 0.492278 0.154350
0.582579 0.492278 0.154350
0.629722 0.492278 0.154350
0.677034 0.492278 0.154350
0.724503 0.492278 0.154350
0.000000 0.543057 0.158025
0.039420 0.543057 0.158025
0.081620 0.543057 0.158025
0.124937 0.543057 0.158025
0.168996 0.543057 0.158025
0.213616 0.543057 0.158025
0.258686 0.543057 0.158025
0.304136 0.543057 0.158025
0.349912 0.543057 0.158025
0.395976 0.543057 0.158025
0.442297 0.543057 0.158025
0.488851 0.543057 0.158025
0.535617 0.543057 0.158025
0.582579 0.543057 0.158025
0.629722 0.543057 0.158025
0.677034 0.543057 0.158025
0.724503 0.543057 0.158025
0.000000 0.593974 0.161700
0.039420 0.593974 0.161700
0.081620 0.593974 0.161700
0.124937 0.593974 0.161700
0.168996 0.593974 0.161700
0.213616 0.593974 0.161700
0.258686 0.593974 0.161700
0.304136 0.593974 0.161700
0.349912 0.593974 0.161700
0.395976 0.593974 0.161700
0.442297 0.593974 0.161700
0.488851 0.593974 0.161700
0.535617 0.593974 0.161700
0.582579 0.593974 0.161700
0.629722 0.593974 0.161700
0.677034 0.593974 0.161700
0.724503 0.593974 0.161700
0.000000 0.645019 0.165375
0.039420 0.645019 0.165375
0.081620 0.645019 0.165375
0.124937 0.645019 0.165375
0.168996 0.645019 0.165375
0.213616 0.645019 0.165375
0.258686 0.645019 0.165375
0.304136 0.645019 0.165375
0.349912 0.645019 0.165375
0.395976 0.645019 0.165375
0.442297 0.645019 0.165375
0.488851 0.645019 0.165375
0.535617 0.645019 0.165375
0.582579 0.645019 0.165375
0.629722 0.645019 0.165375
0.677034 0.645019 0.165375
0.724503 0.645019 0.165375
0.000000 0.696182 0.169050
0.039420 0.696182 0.169050
0.081620 0.696182 0.169050
0.124937 0.696182 0.169050
0.168996 0.696182 0.169050
0.213616 0.696182 0.169050
0.258686 0.696182 0.169050
0.304136 0.696182 0.169050
0.349912 0.696182 0.169050
0.395976 0.696182 0.169050
0.442297 0.696182 0.169050
0.488851 0.696182 0.169050
0.535617 0.696182 0.169050
0.582579 0.696182 0.169050
0.629722 0.696182 0.169050
0.677034 0.696182 0.169050
0.724503 0.696182 0.169050
0.000000 0.747454 0.172725
0.039420 0.747454 0.172725
0.081620 0.747454 0.172725
0.124937 0.747454 0.172725
0.168996 0.747454 0.172725
0.213616 0.747454 0.172725
0.258686 0.747454 0.172725
0.304136 0.747454 0.172725
0.349912 0.747454 0.172725
0.395976 0.747454 0.172725
0.442297 0.747454 0.172725
0.488851 0.747454 0.172725
0.535617 0.747454 0.172725
0.582579 0.747454 0.172725
0.629722 0.747454 0.172725
0.677034 0.747454 0.172725
0.724503 0.747454 0.172725
0.000000 0.798830 0.176400
0.039420 0.798830 0.176400
0.081620 0.798830 0.176400
0.124937 0.798830 0.176400
0.168996 0.798830 0.176400
0.213616 0.798830 0.176400
0.258686 0.798830 0.176400
0.304136 0.798830 0.176400
0.349912 0.798830 0.176400
0.395976 0.798830 0.176400
0.442297 0.798830 0.176400
0.488851 0.798830 0.176400
0.535617 0.798830 0.176400
0.582579 0.798830 0.176400
0.629722 0.798830 0.176400
0.677034 0.798830 0.176400
0.724503 0.798830 0.176400
0.005755 0.004180 0.177625
0.046068 0.004180 0.177625
0.088489 0.004180 0.177625
0.131943 0.004180 0.177625
0.176101 0.004180 0.177625
0.220799 0.004180 0.177625
0.265934 0.004180 0.177625
0.311439 0.004180 0.177625
0.357264 0.004180 0.177625
0.403371 0.004180 0.177625
0.449731 0.004180 0.177625
0.496320 0.004180 0.177625
0.543119 0.004180 0.177625
0.590110 0.004180 0.177625
0.637281 0.004180 0.177625
0.684618 0.004180 0.177625
0.732113 0.004180 0.177625
0.005755 0.050565 0.181300
0.046068 0.050565 0.181300
0.088489 0.050565 0.181300
0.131943 0.050565 0.181300
0.176101 0.050565 0.181300
0.220799 0.050565 0.181300
0.265934 0.050565 0.181300
0.311439 0.050565 0.181300
0.357264 0.050565 0.181300
0.403371 0.050565 0.181300
0.449731 0.050565 0.181300
0.496320 0.050565 0.181300
0.543119 0.050565 0.181300
0.590110 0.050565 0.181300
0.637281 0.050565 0.181300
0.684618 0.050565 0.181300
0.732113 0.050565 0.181300
0.005755 0.098532 0.184975
0.046068 0.098532 0.184975
0.088489 0.098532 0.184975
0.131943 0.098532 0.184975
0.176101 0.098532 0.184975
0.220799 0.098532 0.184975
0.265934 0.098532 0.184975
0.311439 0.098532 0.184975
0.357264 0.098532 0.184975
0.403371 0.098532 0.184975
0.449731 0.098532 0.184975
0.496320 0.098532 0.184975
0.543119 0.098532 0.184975
0.590110 0.098532 0.184975
0.637281 0.098532 0.184975
0.684618 0.098532 0.184975
0.732113 0.098532 0.184975
0.005755 0.147218 0.188650
0.046068 0.147218 0.188650
0.088489 0.147218 0.188650
0.131943 0.147218 0.188650
0.176101 0.147218 0.188650
0.220799 0.147218 0.188650
0.265934 0.147218 0.188650
0.311439 0.147218 0.188650
0.357264 0.147218 0.188650
0.403371 0.147218 0.188650
0.449731 0.147218 0.188650
0.496320 0.147218 0.188650
0.543119 0.147218 0.188650
0.590110 0.147218 0.188650
0.637281 0.147218 0.188650
0.684618 0.147218 0.188650
0.732113 0.147218 0.188650
0.005755 0.196387 0.192325
0.046068 0.196387 0.192325
0.088489 0.196387 0.192325
0.131943 0.196387 0.192325
0.176101 0.196387 0.192325
0.220799 0.196387 0.192325
0.265934 0.196387 0.192325
0.311439 0.196387 0.192325
0.357264 0.196387 0.192325
0.403371 0.196387 0.192325
0.449731 0.196387 0.192325
0.496320 0.196387 0.192325
0.543119 0.196387 0.192325
0.590110 0.196387 0.192325
0.637281 0.196387 0.192325
0.684618 0.196387 0.192325
0.732113 0.196387 0.192325
0.005755 0.245920 0.196000
0.046068 0.245920 0.196000
0.088489 0.245920 0.196000
0.131943 0.245920 0.196000
0.176101 0.245920 0.196000
0.220799 0.245920 0.196000
0.265934 0.245920 0.196000
0.311439 0.245920 0.196000
0.357264 0.245920 0.196000
0.403371 0.245920 0.196000
0.449731 0.245920 0.196000
0.496320 0.245920 0.196000
0.543119 0.245920 0.196000
0.590110 0.245920 0.196000
0.637281 0.245920 0.196000
0.684618 0.245920 0.196000
0.732113 0.245920 0.196000
0.005755 0.295748 0.199675
0.046068 0.295748 0.199675
0.088489 0.295748 0.199675
0.131943 0.295748 0.199675
0.176101 0.295748 0.199675
0.220799 0.295748 0.199675
0.265934 0.295748 0.199675
0.311439 0.295748 0.199675
0.357264 0.295748 0.199675
0.403371 0.295748 0.199675
0.449731 0.295748 0.199675
0.496320 0.295748 0.199675
0.543119 0.295748 0.199675
0.590110 0.295748 0.199675
0.637281 0.295748 0.199675
0.684618 0.295748 0.199675
0.732113 0.295748 0.199675
0.005755 0.345822 0.203350
0.046068 0.345822 0.203350
0.088489 0.345822 0.203350
0.131943 0.345822 0.203350
0.176101 0.345822 0.203350
0.220799 0.345822 0.203350
0.265934 0.345822 0.203350
0.311439 0.345822 0.203350
0.357264 0.345822 0.203350
0.403371 0.345822 0.203350
0.449731 0.345822 0.203350
0.496320 0.345822 0.203350
0.543119 0.345822 0.203350
0.590110 0.345822 0.203350
0.637281 0.345822 0.203350
0.684618 0.345822 0.203350
0.732113 0.345822 0.203350
0.005755 0.396110 0.207025
0.046068 0.396110 0.207025
0.088489 0.396110 0.207025
0.131943 0.396110 0.207025
0.176101 0.396110 0.207025
0.220799 0.396110 0.207025
0.265934 0.396110 0.207025
0.311439 0.396110 0.207025
0.357264 0.396110 0.207025
0.403371 0.396110 0.207025
0.449731 0.396110 0.207025
0.496320 0.396110 0.207025
0.543119 0.396110 0.207025
0.590110 0.396110 0.207025
0.637281 0.396110 0.207025
0.684618 0.396110 0.207025
0.732113 0.396110 0.207025
0.005755 0.446584 0.210700
0.046068 0.446584 0.210700
0.088489 0.446584 0.210700
0.131943 0.446584 0.210700
0.176101 0.446584 0.210700
0.220799 0.446584 0.210700
0.265934 0.446584 0.210700
0.311439 0.446584 0.210700
0.357264 0.446584 0.210700
0.403371 0.446584 0.210700
0.449731 0.446584 0.210700
0.496320 0.446584 0.210700
0.543119 0.446584 0.210700
0.590110 0.446584 0.210700
0.637281 0.446584 0.210700
0.684618 0.446584 0.210700
0.732113 0.446584 0.210700
0.005755 0.497226 0.214375
0.046068 0.497226 0.214375
0.088489 0.497226 0.214375
0.131943 0.497226 0.214375
0.176101 0.497226 0.214375
0.220799 0.497226 0.214375
0.265934 0.497226 0.214375
0.311439 0.497226 0.214375
0.357264 0.497226 0.214375
0.403371 0.497226 0.214375
0.449731 0.497226 0.214375
0.496320 0.497226 0.214375
0.543119 0.497226 0.214375
0.590110 0.497226 0.214375
0.637281 0.497226 0.214375
0.684618 0.497226 0.214375
0.732113 0.497226 0.214375
0.005755 0.548018 0.218050
0.046068 0.548018 0.218050
0.088489 0.548018 0.218050
0.131943 0.548018 0.218050
0.176101 0.548018 0.218050
0.220799 0.548018 0.218050
0.265934 0.548018 0.218050
0.311439 0.548018 0.218050
0.357264 0.548018 0.218050
0.403371 0.548018 0.218050
0.449731 0.548018 0.218050
0.496320 0.548018 0.218050
0.543119 0.548018 0.218050
0.590110 0.548018 0.218050
0.637281 0.548018 0.218050
0.684618 0.548018 0.218050
0.732113 0.548018 0.218050
0.005755 0.598949 0.221725
0.046068 0.598949 0.221725
0.088489 0.598949 0.221725
0.131943 0.598949 0.221725
0.176101 0.598949 0.221725
0.220799 0.598949 0.221725
0.265934 0.598949 0.221725
0.311439 0.598949 0.221725
0.357264 0.598949 0.221725
0.403371 0.598949 0.221725
0.449731 0.598949 0.221725
0.496320 0.598949 0.221725
0.543119 0.598949 0.221725
0.590110 0.598949 0.221725
0.637281 0.598949 0.221725
0.684618 0.598949 0.221725
0.732113 0.598949 0.221725
0.005755 0.650005 0.225400
0.046068 0.650005 0.225400
0.088489 0.650005 0.225400
0.131943 0.650005 0.225400
0.176101 0.650005 0.225400
0.220799 0.650005 0.225400
0.265934 0.650005 0.225400
0.311439 0.650005 0.225400
0.357264 0.650005 0.225400
0.403371 0.650005 0.225400
0.449731 0.650005 0.225400
0.496320 0.650005 0.225400
0.543119 0.650005 0.225400
0.590110 0.650005 0.225400
0.637281 0.650005 0.225400
0.684618 0.650005 0.225400
0.732113 0.650005 0.225400
0.005755 0.701179 0.229075
0.046068 0.701179 0.229075
0.088489 0.701179 0.229075
0.131943 0.701179 0.229075
0.176101 0.701179 0.229075
0.220799 0.701179 0.229075
0.265934 0.701179 0.229075
0.311439 0.701179 0.229075
0.357264 0.701179 0.229075
0.403371 0.701179 0.229075
0.449731 0.701179 0.229075
0.496320 0.701179 0.229075
0.543119 0.701179 0.229075
0.590110 0.701179 0.229075
0.637281 0.701179 0.229075
0.684618 0.701179 0.229075
0.732113 0.701179 0.229075
0.005755 0.752462 0.232750
0.046068 0.752462 0.232750
0.088489 0.752462 0.232750
0.131943 0.752462 0.232750
0.176101 0.752462 0.232750
0.220799 0.752462 0.232750
0.265934 0.752462 0.232750
0.311439 0.752462 0.232750
0.357264 0.752462 0.232750
0.403371 0.752462 0.232750
0.449731 0.752462 0.232750
0.496320 0.752462 0.232750
0.543119 0.752462 0.232750
0.590110 0.752462 0.232750
0.637281 0.752462 0.232750
0.684618 0.752462 0.232750
0.732113 0.752462 0.232750
0.005755 0.803847 0.236425
0.046068 0.803847 0.236425
0.088489 0.803847 0.236425
0.131943 0.803847 0.236425
0.176101 0.803847 0.236425
0.220799 0.803847 0.236425
0.265934 0.803847 0.236425
0.311439 0.803847 0.236425
0.357264 0.803847 0.236425
0.403371 0.803847 0.236425
0.449731 0.803847 0.236425
0.496320 0.803847 0.236425
0.543119 0.803847 0.236425
0.590110 0.803847 0.236425
0.637281 0.803847 0.236425
0.684618 0.803847 0.236425
0.732113 0.803847 0.236425
0.011916 0.008535 0.237650
0.052761 0.008535 0.237650
0.095384 0.008535 0.237650
0.138966 0.008535 0.237650
0.183220 0.008535 0.237650
0.227993 0.008535 0.237650
0.273192 0.008535 0.237650
0.318751 0.008535 0.237650
0.364623 0.008535 0.237650
0.410772 0.008535 0.237650
0.457170 0.008535 0.237650
0.503794 0.008535 0.237650
0.550625 0.008535 0.237650
0.597646 0.008535 0.237650
0.644844 0.008535 0.237650
0.692207 0.008535 0.237650
0.739725 0.008535 0.237650
0.011916 0.055201 0.241325
0.052761 0.055201 0.241325
0.095384 0.055201 0.241325
0.138966 0.055201 0.241325
0.183220 0.055201 0.241325
0.227993 0.055201 0.241325
0.273192 0.055201 0.241325
0.318751 0.055201 0.241325
0.364623 0.055201 0.241325
0.410772 0.055201 0.241325
0.457170 0.055201 0.241325
0.503794 0.055201 0.241325
0.550625 0.055201 0.241325
0.597646 0.055201 0.241325
0.644844 0.055201 0.241325
0.692207 0.055201 0.241325
0.739725 0.055201 0.241325
0.011916 0.103255 0.245000
0.052761 0.103255 0.245000
0.095384 0.103255 0.245000
0.138966 0.103255 0.245000
0.183220 0.103255 0.245000
0.227993 0.103255 0.245000
0.273192 0.103255 0.245000
0.318751 0.103255 0.245000
0.364623 0.103255 0.245000
0.410772 0.103255 0.245000
0.457170 0.103255 0.245000
0.503794 0.103255 0.245000
0.550625 0.103255 0.245000
0.597646 0.103255 0.245000
0.644844 0.103255 0.245000
0.692207 0.103255 0.245000
0.739725 0.103255 0.245000
0.011916 0.151996 0.248675
0.052761 0.151996 0.248675
0.095384 0.151996 0.248675
0.138966 0.151996 0.248675
0.183220 0.151996 0.248675
0.227993 0.151996 0.248675
0.273192 0.151996 0.248675
0.318751 0.151996 0.248675
0.364623 0.151996 0.248675
0.410772 0.151996 0.248675
0.457170 0.151996 0.248675
0.503794 0.151996 0.248675
0.550625 0.151996 0.248675
0.597646 0.151996 0.248675
0.644844 0.151996 0.248675
0.692207 0.151996 0.248675
0.739725 0.151996 0.248675
0.011916 0.201204 0.252350
0.052761 0.201204 0.252350
0.095384 0.201204 0.252350
0.138966 0.201204 0.252350
0.183220 0.201204 0.252350
0.227993 0.201204 0.252350
0.273192 0.201204 0.252350
0.318751 0.201204 0.252350
0.364623 0.201204 0.252350
0.410772 0.201204 0.252350
0.457170 0.201204 0.252350
0.503794 0.201204 0.252350
0.550625 0.201204 0.252350
0.597646 0.201204 0.252350
0.644844 0.201204 0.252350
0.692207 0.201204 0.252350
0.739725 0.201204 0.252350
0.011916 0.250769 0.256025
0.052761 0.250769 0.256025
0.095384 0.250769 0.256025
0.138966 0.250769 0.256025
0.183220 0.250769 0.256025
0.227993 0.250769 0.256025
0.273192 0.250769 0.256025
0.318751 0.250769 0.256025
0.364623 0.250769 0.256025
0.410772 0.250769 0.256025
0.457170 0.250769 0.256025
0.503794 0.250769 0.256025
0.550625 0.250769 0.256025
0.597646 0.250769 0.256025
0.644844 0.250769 0.256025
0.692207 0.250769 0.256025
0.739725 0.250769 0.256025
0.011916 0.300623 0.259700
0.052761 0.300623 0.259700
0.095384 0.300623 0.259700
0.138966 0.300623 0.259700
0.183220 0.300623 0.259700
0.227993 0.300623 0.259700
0.273192 0.300623 0.259700
0.318751 0.300623 0.259700
0.364623 0.300623 0.259700
0.410772 0.300623 0.259700
0.457170 0.300623 0.259700
0.503794 0.300623 0.259700
0.550625 0.300623 0.259700
0.597646 0.300623 0.259700
0.644844 0.300623 0.259700
0.692207 0.300623 0.259700
0.739725 0.300623 0.259700
0.011916 0.350720 0.263375
0.052761 0.350720 0.263375
0.095384 0.350720 0.263375
0.138966 0.350720 0.263375
0.183220 0.350720 0.263375
0.227993 0.350720 0.263375
0.273192 0.350720 0.263375
0.318751 0.350720 0.263375
0.364623 0.350720 0.263375
0.410772 0.350720 0.263375
0.457170 0.350720 0.263375
0.503794 0.350720 0.263375
0.550625 0.350720 0.263375
0.597646 0.350720 0.263375
0.644844 0.350720 0.263375
0.692207 0.350720 0.263375
0.739725 0.350720 0.263375
0.011916 0.401026 0.267050
0.052761 0.401026 0.267050
0.095384 0.401026 0.267050
0.138966 0.401026 0.267050
0.183220 0.401026 0.267050
0.227993 0.401026 0.267050
0.273192 0.401026 0.267050
0.318751 0.401026 0.267050
0.364623 0.401026 0.267050
0.410772 0.401026 0.267050
0.457170 0.401026 0.267050
0.503794 0.401026 0.267050
0.550625 0.401026 0.267050
0.597646 0.401026 0.267050
0.644844 0.401026 0.267050
0.692207 0.401026 0.267050
0.739725 0.401026 0.267050
0.011916 0.451518 0.270725
0.052761 0.451518 0.270725
0.095384 0.451518 0.270725
0.138966 0.451518 0.270725
0.183220 0.451518 0.270725
0.227993 0.451518 0.270725
0.273192 0.451518 0.270725
0.318751 0.451518 0.270725
0.364623 0.451518 0.270725
0.410772 0.451518 0.270725
0.457170 0.451518 0.270725
0.503794 0.451518 0.270725
0.550625 0.451518 0.270725
0.597646 0.451518 0.270725
0.644844 0.451518 0.270725
0.692207 0.451518 0.270725
0.739725 0.451518 0.270725
0.011916 0.502175 0.274400
0.052761 0.502175 0.274400
0.095384 0.502175 0.274400
0.138966 0.502175 0.274400
0.183220 0.502175 0.274400
0.227993 0.502175 0.274400
0.273192 0.502175 0.274400
0.318751 0.502175 0.274400
0.364623 0.502175 0.274400
0.410772 0.502175 0.274400
0.457170 0.502175 0.274400
0.503794 0.502175 0.274400
0.550625 0.502175 0.274400
0.597646 0.502175 0.274400
0.644844 0.502175 0.274400
0.692207 0.502175 0.274400
0.739725 0.502175 0.274400
0.011916 0.552981 0.278075
0.052761 0.552981 0.278075
0.095384 0.552981 0.278075
0.138966 0.552981 0.278075
0.183220 0.552981 0.278075
0.227993 0.552981 0.278075
0.273192 0.552981 0.278075
0.318751 0.552981 0.278075
0.364623 0.552981 0.278075
0.410772 0.552981 0.278075
0.457170 0.552981 0.278075
0.503794 0.552981 0.278075
0.550625 0.552981 0.278075
0.597646 0.552981 0.278075
0.644844 0.552981 0.278075
0.692207 0.552981 0.278075
0.739725 0.552981 0.278075
0.011916 0.603924 0.281750
0.052761 0.603924 0.281750
0.095384 0.603924 0.281750
0.138966 0.603924 0.281750
0.183220 0.603924 0.281750
0.227993 0.603924 0.281750
0.273192 0.603924 0.281750
0.318751 0.603924 0.281750
0.364623 0.603924 0.281750
0.410772 0.603924 0.281750
0.457170 0.603924 0.281750
0.503794 0.603924 0.281750
0.550625 0.603924 0.281750
0.597646 0.603924 0.281750
0.644844 0.603924 0.281750
0.692207 0.603924 0.281750
0.739725 0.603924 0.281750
0.011916 0.654993 0.285425
0.052761 0.654993 0.285425
0.095384 0.654993 0.285425
0.138966 0.654993 0.285425
0.183220 0.654993 0.285425
0.227993 0.654993 0.285425
0.273192 0.654993 0.285425
0.318751 0.654993 0.285425
0.364623 0.654993 0.285425
0.410772 0.654993 0.285425
0.457170 0.654993 0.285425
0.503794 0.654993 0.285425
0.550625 0.654993 0.285425
0.597646 0.654993 0.285425
0.644844 0.654993 0.285425
0.692207 0.654993 0.285425
0.739725 0.654993 0.285425
0.011916 0.706178 0.289100
0.052761 0.706178 0.289100
0.095384 0.706178 0.289100
0.138966 0.706178 0.289100
0.183220 0.706178 0.289100
0.227993 0.706178 0.289100
0.273192 0.706178 0.289100
0.318751 0.706178 0.289100
0.364623 0.706178 0.289100
0.410772 0.706178 0.289100
0.457170 0.706178 0.289100
0.503794 0.706178 0.289100
0.550625 0.706178 0.289100
0.597646 0.706178 0.289100
0.644844 0.706178 0.289100
0.692207 0.706178 0.289100
0.739725 0.706178 0.289100
0.011916 0.757471 0.292775
0.052761 0.757471 0.292775
0.095384 0.757471 0.292775
0.138966 0.757471 0.292775
0.183220 0.757471 0.292775
0.227993 0.757471 0.292775
0.273192 0.757471 0.292775
0.318751 0.757471 0.292775
0.364623 0.757471 0.292775
0.410772 0.757471 0.292775
0.457170 0.757471 0.292775
0.503794 0.757471 0.292775
0.550625 0.757471 0.292775
0.597646 0.757471 0.292775
0.644844 0.757471 0.292775
0.692207 0.757471 0.292775
0.739725 0.757471 0.292775
0.011916 0.808866 0.296450
0.052761 0.808866 0.296450
0.095384 0.808866 0.296450
0.138966 0.808866 0.296450
0.183220 0.808866 0.296450
0.227993 0.808866 0.296450
0.273192 0.808866 0.296450
0.318751 0.808866 0.296450
0.364623 0.808866 0.296450
0.410772 0.808866 0.296450
0.457170 0.808866 0.296450
0.503794 0.808866 0.296450
0.550625 0.808866 0.296450
0.597646 0.808866 0.296450
0.644844 0.808866 0.296450
0.692207 0.808866 0.296450
0.739725 0.808866 0.296450
0.018240 0.012960 0.297675
0.059496 0.012960 0.297675
0.102303 0.012960 0.297675
0.146007 0.012960 0.297675
0.190352 0.012960 0.297675
0.235198 0.012960 0.297675
0.280458 0.012960 0.297675
0.326070 0.012960 0.297675
0.371989 0.012960 0.297675
0.418180 0.012960 0.297675
0.464616 0.012960 0.297675
0.511274 0.012960 0.297675
0.558136 0.012960 0.297675
0.605186 0.012960 0.297675
0.652411 0.012960 0.297675
0.699800 0.012960 0.297675
0.747342 0.012960 0.297675
0.018240 0.059848 0.301350
