luts/PixelFenda_CobaltNoir.cube
TITLE "PixelFenda_CobaltNoir"
LUT_3D_SIZE 9
DOMAIN_MIN 0.0 0.0 0.0
DOMAIN_MAX 1.0 1.0 1.0
0.000000 0.000000 0.117600
0.081620 0.000000 0.117600
0.168996 0.000000 0.117600
0.258686 0.000000 0.117600
0.349912 0.000000 0.117600
0.442297 0.000000 0.117600
0.535617 0.000000 0.117600
0.629722 0.000000 0.117600
0.724503 0.000000 0.117600
0.000000 0.093815 0.124950
0.081620 0.093815 0.124950
0.168996 0.093815 0.124950
0.258686 0.093815 0.124950
0.349912 0.093815 0.124950
0.442297 0.093815 0.124950
0.535617 0.093815 0.124950
0.629722 0.093815 0.124950
0.724503 0.093815 0.124950
0.000000 0.191572 0.132300
0.081620 0.191572 0.132300
0.168996 0.191572 0.132300
0.258686 0.191572 0.132300
0.349912 0.191572 0.132300
0.442297 0.191572 0.132300
0.535617 0.191572 0.132300
0.629722 0.191572 0.132300
0.724503 0.191572 0.132300
0.000000 0.290875 0.139650
0.081620 0.290875 0.139650
0.168996 0.290875 0.139650
0.258686 0.290875 0.139650
0.349912 0.290875 0.139650
0.442297 0.290875 0.139650
0.535617 0.290875 0.139650
0.629722 0.290875 0.139650
0.724503 0.290875 0.139650
0.000000 0.391195 0.147000
0.081620 0.391195 0.147000
0.168996 0.391195 0.147000
0.258686 0.391195 0.147000
0.349912 0.391195 0.147000
0.442297 0.391195 0.147000
0.535617 0.391195 0.147000
0.629722 0.391195 0.147000
0.724503 0.391195 0.147000
0.000000 0.492278 0.154350
0.081620 0.492278 0.154350
0.168996 0.492278 0.154350
0.258686 0.492278 0.154350
0.349912 0.492278 0.154350
0.442297 0.492278 0.154350
0.535617 0.492278 0.154350
0.629722 0.492278 0.154350
0.724503 0.492278 0.154350
0.000000 0.593974 0.161700
0.081620 0.593974 0.161700
0.168996 0.593974 0.161700
0.258686 0.593974 0.161700
0.349912 0.593974 0.161700
0.442297 0.593974 0.161700
0.535617 0.593974 0.161700
0.629722 0.593974 0.161700
0.724503 0.593974 0.161700
0.000000 0.696182 0.169050
0.081620 0.696182 0.169050
0.168996 0.696182 0.169050
0.258686 0.696182 0.169050
0.349912 0.696182 0.169050
0.442297 0.696182 0.169050
0.535617 0.696182 0.169050
0.629722 0.696182 0.169050
0.724503 0.696182 0.169050
0.000000 0.798830 0.176400
0.081620 0.798830 0.176400
0.168996 0.798830 0.176400
0.258686 0.798830 0.176400
0.349912 0.798830 0.176400
0.442297 0.798830 0.176400
0.535617 0.798830 0.176400
0.629722 0.798830 0.176400
0.724503 0.798830 0.176400
0.011916 0.008535 0.237650
0.095384 0.008535 0.237650
0.183220 0.008535 0.237650
0.273192 0.008535 0.237650
0.364623 0.008535 0.237650
0.457170 0.008535 0.237650
0.550625 0.008535 0.237650
0.644844 0.008535 0.237650
0.739725 0.008535 0.237650
0.011916 0.103255 0.245000
0.095384 0.103255 0.245000
0.183220 0.103255 0.245000
0.273192 0.103255 0.245000
0.364623 0.103255 0.245000
0.457170 0.103255 0.245000
0.550625 0.103255 0.245000
0.644844 0.103255 0.245000
0.739725 0.103255 0.245000
0.011916 0.201204 0.252350
0.095384 0.201204 0.252350
0.183220 0.201204 0.252350
0.273192 0.201204 0.252350
0.364623 0.201204 0.252350
0.457170 0.201204 0.252350
0.550625 0.201204 0.252350
0.644844 0.201204 0.252350
0.739725 0.201204 0.252350
0.011916 0.300623 0.259700
0.095384 0.300623 0.259700
0.183220 0.300623 0.259700
0.273192 0.300623 0.259700
0.364623 0.300623 0.259700
0.457170 0.300623 0.259700
0.550625 0.300623 0.259700
0.644844 0.300623 0.259700
0.739725 0.300623 0.259700
0.011916 0.401026 0.267050
0.095384 0.401026 0.267050
0.183220 0.401026 0.267050
0.273192 0.401026 0.267050
0.364623 0.401026 0.267050
0.457170 0.401026 0.267050
0.550625 0.401026 0.267050
0.644844 0.401026 0.267050
0.739725 0.401026 0.267050
0.011916 0.502175 0.274400
0.095384 0.502175 0.274400
0.183220 0.502175 0.274400
0.273192 0.502175 0.274400
0.364623 0.502175 0.274400
0.457170 0.502175 0.274400
0.550625 0.502175 0.274400
0.644844 0.502175 0.274400
0.739725 0.502175 0.274400
0.011916 0.603924 0.281750
0.095384 0.603924 0.281750
0.183220 0.603924 0.281750
0.273192 0.603924 0.281750
0.364623 0.603924 0.281750
0.457170 0.603924 0.281750
0.550625 0.603924 0.281750
0.644844 0.603924 0.281750
0.739725 0.603924 0.281750
0.011916 0.706178 0.289100
0.095384 0.706178 0.289100
0.183220 0.706178 0.289100
0.273192 0.706178 0.289100
0.364623 0.706178 0.289100
0.457170 0.706178 0.289100
0.550625 0.706178 0.289100
0.644844 0.706178 0.289100
0.739725 0.706178 0.289100
0.011916 0.808866 0.296450
0.095384 0.808866 0.296450
0.183220 0.808866 0.296450
0.273192 0.808866 0.296450
0.364623 0.808866 0.296450
0.457170 0.808866 0.296450
0.550625 0.808866 0.296450
0.644844 0.808866 0.296450
0.739725 0.808866 0.296450
0.024672 0.017430 0.357700
0.109244 0.017430 0.357700
0.197496 0.017430 0.357700
0.287734 0.017430 0.357700
0.379362 0.017430 0.357700
0.472066 0.017430 0.357700
0.565651 0.017430 0.357700
0.659983 0.017430 0.357700
0.754963 0.017430 0.357700
0.024672 0.112721 0.365050
0.109244 0.112721 0.365050
0.197496 0.112721 0.365050
0.287734 0.112721 0.365050
0.379362 0.112721 0.365050
0.472066 0.112721 0.365050
0.565651 0.112721 0.365050
0.659983 0.112721 0.365050
0.754963 0.112721 0.365050
0.024672 0.210850 0.372400
0.109244 0.210850 0.372400
0.197496 0.210850 0.372400
0.287734 0.210850 0.372400
0.379362 0.210850 0.372400
0.472066 0.210850 0.372400
0.565651 0.210850 0.372400
0.659983 0.210850 0.372400
0.754963 0.210850 0.372400
0.024672 0.310380 0.379750
0.109244 0.310380 0.379750
0.197496 0.310380 0.379750
0.287734 0.310380 0.379750
0.379362 0.310380 0.379750
0.472066 0.310380 0.379750
0.565651 0.310380 0.379750
0.659983 0.310380 0.379750
0.754963 0.310380 0.379750
0.024672 0.410864 0.387100
0.109244 0.410864 0.387100
0.197496 0.410864 0.387100
0.287734 0.410864 0.387100
0.379362 0.410864 0.387100
0.472066 0.410864 0.387100
0.565651 0.410864 0.387100
0.659983 0.410864 0.387100
0.754963 0.410864 0.387100
0.024672 0.512077 0.394450
0.109244 0.512077 0.394450
0.197496 0.512077 0.394450
0.287734 0.512077 0.394450
0.379362 0.512077 0.394450
0.472066 0.512077 0.394450
0.565651 0.512077 0.394450
0.659983 0.512077 0.394450
0.754963 0.512077 0.394450
0.024672 0.613879 0.401800
0.109244 0.613879 0.401800
0.197496 0.613879 0.401800
0.287734 0.613879 0.401800
0.379362 0.613879 0.401800
0.472066 0.613879 0.401800
0.565651 0.613879 0.401800
0.659983 0.613879 0.401800
0.754963 0.613879 0.401800
0.024672 0.716178 0.409150
0.109244 0.716178 0.409150
0.197496 0.716178 0.409150
0.287734 0.716178 0.409150
0.379362 0.716178 0.409150
0.472066 0.716178 0.409150
0.565651 0.716178 0.409150
0.659983 0.716178 0.409150
0.754963 0.716178 0.409150
0.024672 0.818905 0.416500
0.109244 0.818905 0.416500
0.197496 0.818905 0.416500
0.287734 0.818905 0.416500
0.379362 0.818905 0.416500
0.472066 0.818905 0.416500
0.565651 0.818905 0.416500
0.659983 0.818905 0.416500
0.754963 0.818905 0.416500
0.037766 0.026464 0.477750
0.123189 0.026464 0.477750
0.211822 0.026464 0.477750
0.302311 0.026464 0.477750
0.394128 0.026464 0.477750
0.486985 0.026464 0.477750
0.580697 0.026464 0.477750
0.675138 0.026464 0.477750
0.770214 0.026464 0.477750
0.037766 0.122210 0.485100
0.123189 0.122210 0.485100
0.211822 0.122210 0.485100
0.302311 0.122210 0.485100
0.394128 0.122210 0.485100
0.486985 0.122210 0.485100
0.580697 0.122210 0.485100
0.675138 0.122210 0.485100
0.770214 0.122210 0.485100
0.037766 0.220509 0.492450
0.123189 0.220509 0.492450
0.211822 0.220509 0.492450
0.302311 0.220509 0.492450
0.394128 0.220509 0.492450
0.486985 0.220509 0.492450
0.580697 0.220509 0.492450
0.675138 0.220509 0.492450
0.770214 0.220509 0.492450
0.037766 0.320146 0.499800
0.123189 0.320146 0.499800
0.211822 0.320146 0.499800
0.302311 0.320146 0.499800
0.394128 0.320146 0.499800
0.486985 0.320146 0.499800
0.580697 0.320146 0.499800
0.675138 0.320146 0.499800
0.770214 0.320146 0.499800
0.037766 0.420710 0.507150
0.123189 0.420710 0.507150
0.211822 0.420710 0.507150
0.302311 0.420710 0.507150
0.394128 0.420710 0.507150
0.486985 0.420710 0.507150
0.580697 0.420710 0.507150
0.675138 0.420710 0.507150
0.770214 0.420710 0.507150
0.037766 0.521985 0.514500
0.123189 0.521985 0.514500
0.211822 0.521985 0.514500
0.302311 0.521985 0.514500
0.394128 0.521985 0.514500
0.486985 0.521985 0.514500
0.580697 0.521985 0.514500
0.675138 0.521985 0.514500
0.770214 0.521985 0.514500
0.037766 0.623839 0.521850
0.123189 0.623839 0.521850
0.211822 0.623839 0.521850
0.302311 0.623839 0.521850
0.394128 0.623839 0.521850
0.486985 0.623839 0.521850
0.580697 0.623839 0.521850
0.675138 0.623839 0.521850
0.770214 0.623839 0.521850
0.037766 0.726182 0.529200
0.123189 0.726182 0.529200
0.211822 0.726182 0.529200
0.302311 0.726182 0.529200
0.394128 0.726182 0.529200
0.486985 0.726182 0.529200
0.580697 0.726182 0.529200
0.675138 0.726182 0.529200
0.770214 0.726182 0.529200
0.037766 0.828949 0.536550
0.123189 0.828949 0.536550
0.211822 0.828949 0.536550
0.302311 0.828949 0.536550
0.394128 0.828949 0.536550
0.486985 0.828949 0.536550
0.580697 0.828949 0.536550
0.675138 0.828949 0.536550
0.770214 0.828949 0.536550
0.051084 0.035592 0.597800
0.137209 0.035592 0.597800
0.226193 0.035592 0.597800
0.316922 0.035592 0.597800
0.408921 0.035592 0.597800
0.501925 0.035592 0.597800
0.595761 0.035592 0.597800
0.690310 0.035592 0.597800
0.785480 0.035592 0.597800
0.051084 0.131721 0.605150
0.137209 0.131721 0.605150
0.226193 0.131721 0.605150
0.316922 0.131721 0.605150
0.408921 0.131721 0.605150
0.501925 0.131721 0.605150
0.595761 0.131721 0.605150
0.690310 0.131721 0.605150
0.785480 0.131721 0.605150
0.051084 0.230180 0.612500
0.137209 0.230180 0.612500
0.226193 0.230180 0.612500
0.316922 0.230180 0.612500
0.408921 0.230180 0.612500
0.501925 0.230180 0.612500
0.595761 0.230180 0.612500
0.690310 0.230180 0.612500
0.785480 0.230180 0.612500
0.051084 0.329921 0.619850
0.137209 0.329921 0.619850
0.226193 0.329921 0.619850
0.316922 0.329921 0.619850
0.408921 0.329921 0.619850
0.501925 0.329921 0.619850
0.595761 0.329921 0.619850
0.690310 0.329921 0.619850
0.785480 0.329921 0.619850
0.051084 0.430561 0.627200
0.137209 0.430561 0.627200
0.226193 0.430561 0.627200
0.316922 0.430561 0.627200
0.408921 0.430561 0.627200
0.501925 0.430561 0.627200
0.595761 0.430561 0.627200
0.690310 0.430561 0.627200
0.785480 0.430561 0.627200
0.051084 0.531898 0.634550
0.137209 0.531898 0.634550
0.226193 0.531898 0.634550
0.316922 0.531898 0.634550
0.408921 0.531898 0.634550
0.501925 0.531898 0.634550
0.595761 0.531898 0.634550
0.690310 0.531898 0.634550
0.785480 0.531898 0.634550
0.051084 0.633803 0.641900
0.137209 0.633803 0.641900
0.226193 0.633803 0.641900
0.316922 0.633803 0.641900
0.408921 0.633803 0.641900
0.501925 0.633803 0.641900
0.595761 0.633803 0.641900
0.690310 0.633803 0.641900
0.785480 0.633803 0.641900
0.051084 0.736190 0.649250
0.137209 0.736190 0.649250
0.226193 0.736190 0.649250
0.316922 0.736190 0.649250
0.408921 0.736190 0.649250
0.501925 0.736190 0.649250
0.595761 0.736190 0.649250
0.690310 0.736190 0.649250
0.785480 0.736190 0.649250
0.051084 0.838995 0.656600
0.137209 0.838995 0.656600
0.226193 0.838995 0.656600
0.316922 0.838995 0.656600
0.408921 0.838995 0.656600
0.501925 0.838995 0.656600
0.595761 0.838995 0.656600
0.690310 0.838995 0.656600
0.785480 0.838995 0.656600
0.064571 0.044788 0.717850
0.151298 0.044788 0.717850
0.240609 0.044788 0.717850
0.331565 0.044788 0.717850
0.423740 0.044788 0.717850
0.516887 0.044788 0.717850
0.610844 0.044788 0.717850
0.705497 0.044788 0.717850
0.800761 0.044788 0.717850
0.064571 0.141252 0.725200
0.151298 0.141252 0.725200
0.240609 0.141252 0.725200
0.331565 0.141252 0.725200
0.423740 0.141252 0.725200
0.516887 0.141252 0.725200
0.610844 0.141252 0.725200
0.705497 0.141252 0.725200
0.800761 0.141252 0.725200
0.064571 0.239863 0.732550
0.151298 0.239863 0.732550
0.240609 0.239863 0.732550
0.331565 0.239863 0.732550
0.423740 0.239863 0.732550
0.516887 0.239863 0.732550
0.610844 0.239863 0.732550
0.705497 0.239863 0.732550
0.800761 0.239863 0.732550
0.064571 0.339704 0.739900
0.151298 0.339704 0.739900
0.240609 0.339704 0.739900
0.331565 0.339704 0.739900
0.423740 0.339704 0.739900
0.516887 0.339704 0.739900
0.610844 0.339704 0.739900
0.705497 0.339704 0.739900
0.800761 0.339704 0.739900
0.064571 0.440420 0.747250
0.151298 0.440420 0.747250
0.240609 0.440420 0.747250
0.331565 0.440420 0.747250
0.423740 0.440420 0.747250
0.516887 0.440420 0.747250
0.610844 0.440420 0.747250
0.705497 0.440420 0.747250
0.800761 0.440420 0.747250
0.064571 0.541817 0.754600
0.151298 0.541817 0.754600
0.240609 0.541817 0.754600
0.331565 0.541817 0.754600
0.423740 0.541817 0.754600
0.516887 0.541817 0.754600
0.610844 0.541817 0.754600
0.705497 0.541817 0.754600
0.800761 0.541817 0.754600
0.064571 0.643772 0.761950
0.151298 0.643772 0.761950
0.240609 0.643772 0.761950
0.331565 0.643772 0.761950
0.423740 0.643772 0.761950
0.516887 0.643772 0.761950
0.610844 0.643772 0.761950
0.705497 0.643772 0.761950
0.800761 0.643772 0.761950
0.064571 0.746203 0.769300
0.151298 0.746203 0.769300
0.240609 0.746203 0.769300
0.331565 0.746203 0.769300
0.423740 0.746203 0.769300
0.516887 0.746203 0.769300
0.610844 0.746203 0.769300
0.705497 0.746203 0.769300
0.800761 0.746203 0.769300
0.064571 0.849045 0.776650
0.151298 0.849045 0.776650
0.240609 0.849045 0.776650
0.331565 0.849045 0.776650
0.423740 0.849045 0.776650
0.516887 0.849045 0.776650
0.610844 0.849045 0.776650
0.705497 0.849045 0.776650
0.800761 0.849045 0.776650
0.078195 0.054041 0.837900
0.165449 0.054041 0.837900
0.255066 0.054041 0.837900
0.346239 0.054041 0.837900
0.438583 0.054041 0.837900
0.531869 0.054041 0.837900
0.625944 0.054041 0.837900
0.720700 0.054041 0.837900
0.816055 0.054041 0.837900
0.078195 0.150801 0.845250
0.165449 0.150801 0.845250
0.255066 0.150801 0.845250
0.346239 0.150801 0.845250
0.438583 0.150801 0.845250
0.531869 0.150801 0.845250
0.625944 0.150801 0.845250
0.720700 0.150801 0.845250
0.816055 0.150801 0.845250
0.078195 0.249557 0.852600
0.165449 0.249557 0.852600
0.255066 0.249557 0.852600
0.346239 0.249557 0.852600
0.438583 0.249557 0.852600
0.531869 0.249557 0.852600
0.625944 0.249557 0.852600
0.720700 0.249557 0.852600
0.816055 0.249557 0.852600
0.078195 0.349495 0.859950
0.165449 0.349495 0.859950
0.255066 0.349495 0.859950
0.346239 0.349495 0.859950
0.438583 0.349495 0.859950
0.531869 0.349495 0.859950
0.625944 0.349495 0.859950
0.720700 0.349495 0.859950
0.816055 0.349495 0.859950
0.078195 0.450284 0.867300
0.165449 0.450284 0.867300
0.255066 0.450284 0.867300
0.346239 0.450284 0.867300
0.438583 0.450284 0.867300
0.531869 0.450284 0.867300
0.625944 0.450284 0.867300
0.720700 0.450284 0.867300
0.816055 0.450284 0.867300
0.078195 0.551740 0.874650
0.165449 0.551740 0.874650
0.255066 0.551740 0.874650
0.346239 0.551740 0.874650
0.438583 0.551740 0.874650
0.531869 0.551740 0.874650
0.625944 0.551740 0.874650
0.720700 0.551740 0.874650
0.816055 0.551740 0.874650
0.078195 0.653746 0.882000
0.165449 0.653746 0.882000
0.255066 0.653746 0.882000
0.346239 0.653746 0.882000
0.438583 0.653746 0.882000
0.531869 0.653746 0.882000
0.625944 0.653746 0.882000
0.720700 0.653746 0.882000
0.816055 0.653746 0.882000
0.078195 0.756219 0.889350
0.165449 0.756219 0.889350
0.255066 0.756219 0.889350
0.346239 0.756219 0.889350
0.438583 0.756219 0.889350
0.531869 0.756219 0.889350
0.625944 0.756219 0.889350
0.720700 0.756219 0.889350
0.816055 0.756219 0.889350
0.078195 0.859099 0.896700
0.165449 0.859099 0.896700
0.255066 0.859099 0.896700
0.346239 0.859099 0.896700
0.438583 0.859099 0.896700
0.531869 0.859099 0.896700
0.625944 0.859099 0.896700
0.720700 0.859099 0.896700
0.816055 0.859099 0.896700
0.091934 0.063340 0.957950
0.179659 0.063340 0.957950
0.269562 0.063340 0.957950
0.360942 0.063340 0.957950
0.453450 0.063340 0.957950
0.546871 0.063340 0.957950
0.641062 0.063340 0.957950
0.735919 0.063340 0.957950
0.831363 0.063340 0.957950
0.091934 0.160368 0.965300
0.179659 0.160368 0.965300
0.269562 0.160368 0.965300
0.360942 0.160368 0.965300
0.453450 0.160368 0.965300
0.546871 0.160368 0.965300
0.641062 0.160368 0.965300
0.735919 0.160368 0.965300
0.831363 0.160368 0.965300
0.091934 0.259262 0.972650
0.179659 0.259262 0.972650
0.269562 0.259262 0.972650
0.360942 0.259262 0.972650
0.453450 0.259262 0.972650
0.546871 0.259262 0.972650
0.641062 0.259262 0.972650
0.735919 0.259262 0.972650
0.831363 0.259262 0.972650
0.091934 0.359294 0.980000
0.179659 0.359294 0.980000
0.269562 0.359294 0.980000
0.360942 0.359294 0.980000
0.453450 0.359294 0.980000
0.546871 0.359294 0.980000
0.641062 0.359294 0.980000
0.735919 0.359294 0.980000
0.831363 0.359294 0.980000
0.091934 0.460155 0.980000
0.179659 0.460155 0.980000
0.269562 0.460155 0.980000
0.360942 0.460155 0.980000
0.453450 0.460155 0.980000
0.546871 0.460155 0.980000
0.641062 0.460155 0.980000
0.735919 0.460155 0.980000
0.831363 0.460155 0.980000
0.091934 0.561670 0.980000
0.179659 0.561670 0.980000
0.269562 0.561670 0.980000
0.360942 0.561670 0.980000
0.453450 0.561670 0.980000
0.546871 0.561670 0.980000
0.641062 0.561670 0.980000
0.735919 0.561670 0.980000
0.831363 0.561670 0.980000
0.091934 0.663724 0.980000
0.179659 0.663724 0.980000
0.269562 0.663724 0.980000
0.360942 0.663724 0.980000
0.453450 0.663724 0.980000
0.546871 0.663724 0.980000
0.641062 0.663724 0.980000
0.735919 0.663724 0.980000
0.831363 0.663724 0.980000
0.091934 0.766239 0.980000
0.179659 0.766239 0.980000
0.269562 0.766239 0.980000
0.360942 0.766239 0.980000
0.453450 0.766239 0.980000
0.546871 0.766239 0.980000
0.641062 0.766239 0.980000
0.735919 0.766239 0.980000
0.831363 0.766239 0.980000
0.091934 0.869156 0.980000
0.179659 0.869156 0.980000
0.269562 0.869156 0.980000
0.360942 0.869156 0.980000
0.453450 0.869156 0.980000
0.546871 0.869156 0.980000
0.641062 0.869156 0.980000
0.735919 0.869156 0.980000
0.831363 0.869156 0.980000
0.105771 0.072679 0.980000
0.193922 0.072679 0.980000
0.284095 0.072679 0.980000
0.375675 0.072679 0.980000
0.468340 0.072679 0.980000
0.561893 0.072679 0.980000
0.656196 0.072679 0.980000
0.751152 0.072679 0.980000
0.846684 0.072679 0.980000
0.105771 0.169952 0.980000
0.193922 0.169952 0.980000
0.284095 0.169952 0.980000
0.375675 0.169952 0.980000
0.468340 0.169952 0.980000
0.561893 0.169952 0.980000
0.656196 0.169952 0.980000
0.751152 0.169952 0.980000
0.846684 0.169952 0.980000
0.105771 0.268978 0.980000
0.193922 0.268978 0.980000
0.284095 0.268978 0.980000
0.375675 0.268978 0.980000
0.468340 0.268978 0.980000
0.561893 0.268978 0.980000
0.656196 0.268978 0.980000
0.751152 0.268978 0.980000
0.846684 0.268978 0.980000
0.105771 0.369102 0.980000
0.193922 0.369102 0.980000
0.284095 0.369102 0.980000
0.375675 0.369102 0.980000
0.468340 0.369102 0.980000
0.561893 0.369102 0.980000
0.656196 0.369102 0.980000
0.751152 0.369102 0.980000
0.846684 0.369102 0.980000
0.105771 0.470033 0.980000
0.193922 0.470033 0.980000
0.284095 0.470033 0.980000
0.375675 0.470033 0.980000
0.468340 0.470033 0.980000
0.561893 0.470033 0.980000
0.656196 0.470033 0.980000
0.751152 0.470033 0.980000
0.846684 0.470033 0.980000
0.105771 0.571604 0.980000
0.193922 0.571604 0.980000
0.284095 0.571604 0.980000
0.375675 0.571604 0.980000
0.468340 0.571604 0.980000
0.561893 0.571604 0.980000
0.656196 0.571604 0.980000
0.751152 0.571604 0.980000
0.846684 0.571604 0.980000
0.105771 0.673706 0.980000
0.193922 0.673706 0.980000
0.284095 0.673706 0.980000
0.375675 0.673706 0.980000
0.468340 0.673706 0.980000
0.561893 0.673706 0.980000
0.656196 0.673706 0.980000
0.751152 0.673706 0.980000
0.846684 0.673706 0.980000
0.105771 0.776263 0.980000
0.193922 0.776263 0.980000
0.284095 0.776263 0.980000
0.375675 0.776263 0.980000
0.468340 0.776263 0.980000
0.561893 0.776263 0.980000
0.656196 0.776263 0.980000
0.751152 0.776263 0.980000
0.846684 0.776263 0.980000
0.105771 0.879217 0.980000
0.193922 0.879217 0.980000
0.284095 0.879217 0.980000
0.375675 0.879217 0.980000
0.468340 0.879217 0.980000
0.561893 0.879217 0.980000
0.656196 0.879217 0.980000
0.751152 0.879217 0.980000
0.846684 0.879217 0.980000
