luts/PixelFenda_CobaltNoir.cube
TITLE "PixelFenda_CobaltNoir"
LUT_3D_SIZE 5
DOMAIN_MIN 0.0 0.0 0.0
DOMAIN_MAX 1.0 1.0 1.0
0.000000 0.000000 0.117600
0.168996 0.000000 0.117600
0.349912 0.000000 0.117600
0.535617 0.000000 0.117600
0.724503 0.000000 0.117600
0.000000 0.191572 0.132300
0.168996 0.191572 0.132300
0.349912 0.191572 0.132300
0.535617 0.191572 0.132300
0.724503 0.191572 0.132300
0.000000 0.391195 0.147000
0.168996 0.391195 0.147000
0.349912 0.391195 0.147000
0.535617 0.391195 0.147000
0.724503 0.391195 0.147000
0.000000 0.593974 0.161700
0.168996 0.593974 0.161700
0.349912 0.593974 0.161700
0.535617 0.593974 0.161700
0.724503 0.593974 0.161700
0.000000 0.798830 0.176400
0.168996 0.798830 0.176400
0.349912 0.798830 0.176400
0.535617 0.798830 0.176400
0.724503 0.798830 0.176400
0.024672 0.017430 0.357700
0.197496 0.017430 0.357700
0.379362 0.017430 0.357700
0.565651 0.017430 0.357700
0.754963 0.017430 0.357700
0.024672 0.210850 0.372400
0.197496 0.210850 0.372400
0.379362 0.210850 0.372400
0.565651 0.210850 0.372400
0.754963 0.210850 0.372400
0.024672 0.410864 0.387100
0.197496 0.410864 0.387100
0.379362 0.410864 0.387100
0.565651 0.410864 0.387100
0.754963 0.410864 0.387100
0.024672 0.613879 0.401800
0.197496 0.613879 0.401800
0.379362 0.613879 0.401800
0.565651 0.613879 0.401800
0.754963 0.613879 0.401800
0.024672 0.818905 0.416500
0.197496 0.818905 0.416500
0.379362 0.818905 0.416500
0.565651 0.818905 0.416500
0.754963 0.818905 0.416500
0.051084 0.035592 0.597800
0.226193 0.035592 0.597800
0.408921 0.035592 0.597800
0.595761 0.035592 0.597800
0.785480 0.035592 0.597800
0.051084 0.230180 0.612500
0.226193 0.230180 0.612500
0.408921 0.230180 0.612500
0.595761 0.230180 0.612500
0.785480 0.230180 0.612500
0.051084 0.430561 0.627200
0.226193 0.430561 0.627200
0.408921 0.430561 0.627200
0.595761 0.430561 0.627200
0.785480 0.430561 0.627200
0.051084 0.633803 0.641900
0.226193 0.633803 0.641900
0.408921 0.633803 0.641900
0.595761 0.633803 0.641900
0.785480 0.633803 0.641900
0.051084 0.838995 0.656600
0.226193 0.838995 0.656600
0.408921 0.838995 0.656600
0.595761 0.838995 0.656600
0.785480 0.838995 0.656600
0.078195 0.054041 0.837900
0.255066 0.054041 0.837900
0.438583 0.054041 0.837900
0.625944 0.054041 0.837900
0.816055 0.054041 0.837900
0.078195 0.249557 0.852600
0.255066 0.249557 0.852600
0.438583 0.249557 0.852600
0.625944 0.249557 0.852600
0.816055 0.249557 0.852600
0.078195 0.450284 0.867300
0.255066 0.450284 0.867300
0.438583 0.450284 0.867300
0.625944 0.450284 0.867300
0.816055 0.450284 0.867300
0.078195 0.653746 0.882000
0.255066 0.653746 0.882000
0.438583 0.653746 0.882000
0.625944 0.653746 0.882000
0.816055 0.653746 0.882000
0.078195 0.859099 0.896700
0.255066 0.859099 0.896700
0.438583 0.859099 0.896700
0.625944 0.859099 0.896700
0.816055 0.859099 0.896700
0.105771 0.072679 0.980000
0.284095 0.072679 0.980000
0.468340 0.072679 0.980000
0.656196 0.072679 0.980000
0.846684 0.072679 0.980000
0.105771 0.268978 0.980000
0.284095 0.268978 0.980000
0.468340 0.268978 0.980000
0.656196 0.268978 0.980000
0.846684 0.268978 0.980000
0.105771 0.470033 0.980000
0.284095 0.470033 0.980000
0.468340 0.470033 0.980000
0.656196 0.470033 0.980000
0.846684 0.470033 0.980000
0.105771 0.673706 0.980000
0.284095 0.673706 0.980000
0.468340 0.673706 0.980000
0.656196 0.673706 0.980000
0.846684 0.673706 0.980000
0.105771 0.879217 0.980000
0.284095 0.879217 0.980000
0.468340 0.879217 0.980000
0.656196 0.879217 0.980000
0.846684 0.879217 0.980000
