luts/PixelFenda_ChromeIce.cube
TITLE "PixelFenda_ChromeIce"
LUT_3D_SIZE 9
DOMAIN_MIN 0.0 0.0 0.0
DOMAIN_MAX 1.0 1.0 1.0
0.050000 0.050000 0.050000
0.107200 0.082825 0.086075
0.164400 0.115650 0.122150
0.221600 0.148475 0.158225
0.278800 0.181300 0.194300
0.336000 0.214125 0.230375
0.393200 0.246950 0.266450
0.450400 0.279775 0.302525
0.507600 0.312600 0.338600
0.079900 0.110125 0.086075
0.137100 0.142950 0.122150
0.194300 0.175775 0.158225
0.251500 0.208600 0.194300
0.308700 0.241425 0.230375
0.365900 0.274250 0.266450
0.423100 0.307075 0.302525
0.480300 0.339900 0.338600
0.537500 0.372725 0.374675
0.109800 0.170250 0.122150
0.167000 0.203075 0.158225
0.224200 0.235900 0.194300
0.281400 0.268725 0.230375
0.338600 0.301550 0.266450
0.395800 0.334375 0.302525
0.453000 0.367200 0.338600
0.510200 0.400025 0.374675
0.567400 0.432850 0.410750
0.139700 0.230375 0.158225
0.196900 0.263200 0.194300
0.254100 0.296025 0.230375
0.311300 0.328850 0.266450
0.368500 0.361675 0.302525
0.425700 0.394500 0.338600
0.482900 0.427325 0.374675
0.540100 0.460150 0.410750
0.597300 0.492975 0.446825
0.169600 0.290500 0.194300
0.226800 0.323325 0.230375
0.284000 0.356150 0.266450
0.341200 0.388975 0.302525
0.398400 0.421800 0.338600
0.455600 0.454625 0.374675
0.512800 0.487450 0.410750
0.570000 0.520275 0.446825
0.627200 0.553100 0.482900
0.199500 0.350625 0.230375
0.256700 0.383450 0.266450
0.313900 0.416275 0.302525
0.371100 0.449100 0.338600
0.428300 0.481925 0.374675
0.485500 0.514750 0.410750
0.542700 0.547575 0.446825
0.599900 0.580400 0.482900
0.657100 0.613225 0.518975
0.229400 0.410750 0.266450
0.286600 0.443575 0.302525
0.343800 0.476400 0.338600
0.401000 0.509225 0.374675
0.458200 0.542050 0.410750
0.515400 0.574875 0.446825
0.572600 0.607700 0.482900
0.629800 0.640525 0.518975
0.687000 0.673350 0.555050
0.259300 0.470875 0.302525
0.316500 0.503700 0.338600
0.373700 0.536525 0.374675
0.430900 0.569350 0.410750
0.488100 0.602175 0.446825
0.545300 0.635000 0.482900
0.602500 0.667825 0.518975
0.659700 0.700650 0.555050
0.716900 0.733475 0.591125
0.289200 0.531000 0.338600
0.346400 0.563825 0.374675
0.403600 0.596650 0.410750
0.460800 0.629475 0.446825
0.518000 0.662300 0.482900
0.575200 0.695125 0.518975
0.632400 0.727950 0.555050
0.689600 0.760775 0.591125
0.746800 0.793600 0.627200
0.079900 0.082825 0.113375
0.137100 0.115650 0.149450
0.194300 0.148475 0.185525
0.251500 0.181300 0.221600
0.308700 0.214125 0.257675
0.365900 0.246950 0.293750
0.423100 0.279775 0.329825
0.480300 0.312600 0.365900
0.537500 0.345425 0.401975
0.109800 0.142950 0.149450
0.167000 0.175775 0.185525
0.224200 0.208600 0.221600
0.281400 0.241425 0.257675
0.338600 0.274250 0.293750
0.395800 0.307075 0.329825
0.453000 0.339900 0.365900
0.510200 0.372725 0.401975
0.567400 0.405550 0.438050
0.139700 0.203075 0.185525
0.196900 0.235900 0.221600
0.254100 0.268725 0.257675
0.311300 0.301550 0.293750
0.368500 0.334375 0.329825
0.425700 0.367200 0.365900
0.482900 0.400025 0.401975
0.540100 0.432850 0.438050
0.597300 0.465675 0.474125
0.169600 0.263200 0.221600
0.226800 0.296025 0.257675
0.284000 0.328850 0.293750
0.341200 0.361675 0.329825
0.398400 0.394500 0.365900
0.455600 0.427325 0.401975
0.512800 0.460150 0.438050
0.570000 0.492975 0.474125
0.627200 0.525800 0.510200
0.199500 0.323325 0.257675
0.256700 0.356150 0.293750
0.313900 0.388975 0.329825
0.371100 0.421800 0.365900
0.428300 0.454625 0.401975
0.485500 0.487450 0.438050
0.542700 0.520275 0.474125
0.599900 0.553100 0.510200
0.657100 0.585925 0.546275
0.229400 0.383450 0.293750
0.286600 0.416275 0.329825
0.343800 0.449100 0.365900
0.401000 0.481925 0.401975
0.458200 0.514750 0.438050
0.515400 0.547575 0.474125
0.572600 0.580400 0.510200
0.629800 0.613225 0.546275
0.687000 0.646050 0.582350
0.259300 0.443575 0.329825
0.316500 0.476400 0.365900
0.373700 0.509225 0.401975
0.430900 0.542050 0.438050
0.488100 0.574875 0.474125
0.545300 0.607700 0.510200
0.602500 0.640525 0.546275
0.659700 0.673350 0.582350
0.716900 0.706175 0.618425
0.289200 0.503700 0.365900
0.346400 0.536525 0.401975
0.403600 0.569350 0.438050
0.460800 0.602175 0.474125
0.518000 0.635000 0.510200
0.575200 0.667825 0.546275
0.632400 0.700650 0.582350
0.689600 0.733475 0.618425
0.746800 0.766300 0.654500
0.319100 0.563825 0.401975
0.376300 0.596650 0.438050
0.433500 0.629475 0.474125
0.490700 0.662300 0.510200
0.547900 0.695125 0.546275
0.605100 0.727950 0.582350
0.662300 0.760775 0.618425
0.719500 0.793600 0.654500
0.776700 0.826425 0.690575
0.109800 0.115650 0.176750
0.167000 0.148475 0.212825
0.224200 0.181300 0.248900
0.281400 0.214125 0.284975
0.338600 0.246950 0.321050
0.395800 0.279775 0.357125
0.453000 0.312600 0.393200
0.510200 0.345425 0.429275
0.567400 0.378250 0.465350
0.139700 0.175775 0.212825
0.196900 0.208600 0.248900
0.254100 0.241425 0.284975
0.311300 0.274250 0.321050
0.368500 0.307075 0.357125
0.425700 0.339900 0.393200
0.482900 0.372725 0.429275
0.540100 0.405550 0.465350
0.597300 0.438375 0.501425
0.169600 0.235900 0.248900
0.226800 0.268725 0.284975
0.284000 0.301550 0.321050
0.341200 0.334375 0.357125
0.398400 0.367200 0.393200
0.455600 0.400025 0.429275
0.512800 0.432850 0.465350
0.570000 0.465675 0.501425
0.627200 0.498500 0.537500
0.199500 0.296025 0.284975
0.256700 0.328850 0.321050
0.313900 0.361675 0.357125
0.371100 0.394500 0.393200
0.428300 0.427325 0.429275
0.485500 0.460150 0.465350
0.542700 0.492975 0.501425
0.599900 0.525800 0.537500
0.657100 0.558625 0.573575
0.229400 0.356150 0.321050
0.286600 0.388975 0.357125
0.343800 0.421800 0.393200
0.401000 0.454625 0.429275
0.458200 0.487450 0.465350
0.515400 0.520275 0.501425
0.572600 0.553100 0.537500
0.629800 0.585925 0.573575
0.687000 0.618750 0.609650
0.259300 0.416275 0.357125
0.316500 0.449100 0.393200
0.373700 0.481925 0.429275
0.430900 0.514750 0.465350
0.488100 0.547575 0.501425
0.545300 0.580400 0.537500
0.602500 0.613225 0.573575
0.659700 0.646050 0.609650
0.716900 0.678875 0.645725
0.289200 0.476400 0.393200
0.346400 0.509225 0.429275
0.403600 0.542050 0.465350
0.460800 0.574875 0.501425
0.518000 0.607700 0.537500
0.575200 0.640525 0.573575
0.632400 0.673350 0.609650
0.689600 0.706175 0.645725
0.746800 0.739000 0.681800
0.319100 0.536525 0.429275
0.376300 0.569350 0.465350
0.433500 0.602175 0.501425
0.490700 0.635000 0.537500
0.547900 0.667825 0.573575
0.605100 0.700650 0.609650
0.662300 0.733475 0.645725
0.719500 0.766300 0.681800
0.776700 0.799125 0.717875
0.349000 0.596650 0.465350
0.406200 0.629475 0.501425
0.463400 0.662300 0.537500
0.520600 0.695125 0.573575
0.577800 0.727950 0.609650
0.635000 0.760775 0.645725
0.692200 0.793600 0.681800
0.749400 0.826425 0.717875
0.806600 0.859250 0.753950
0.139700 0.148475 0.240125
0.196900 0.181300 0.276200
0.254100 0.214125 0.312275
0.311300 0.246950 0.348350
0.368500 0.279775 0.384425
0.425700 0.312600 0.420500
0.482900 0.345425 0.456575
0.540100 0.378250 0.492650
0.597300 0.411075 0.528725
0.169600 0.208600 0.276200
0.226800 0.241425 0.312275
0.284000 0.274250 0.348350
0.341200 0.307075 0.384425
0.398400 0.339900 0.420500
0.455600 0.372725 0.456575
0.512800 0.405550 0.492650
0.570000 0.438375 0.528725
0.627200 0.471200 0.564800
0.199500 0.268725 0.312275
0.256700 0.301550 0.348350
0.313900 0.334375 0.384425
0.371100 0.367200 0.420500
0.428300 0.400025 0.456575
0.485500 0.432850 0.492650
0.542700 0.465675 0.528725
0.599900 0.498500 0.564800
0.657100 0.531325 0.600875
0.229400 0.328850 0.348350
0.286600 0.361675 0.384425
0.343800 0.394500 0.420500
0.401000 0.427325 0.456575
0.458200 0.460150 0.492650
0.515400 0.492975 0.528725
0.572600 0.525800 0.564800
0.629800 0.558625 0.600875
0.687000 0.591450 0.636950
0.259300 0.388975 0.384425
0.316500 0.421800 0.420500
0.373700 0.454625 0.456575
0.430900 0.487450 0.492650
0.488100 0.520275 0.528725
0.545300 0.553100 0.564800
0.602500 0.585925 0.600875
0.659700 0.618750 0.636950
0.716900 0.651575 0.673025
0.289200 0.449100 0.420500
0.346400 0.481925 0.456575
0.403600 0.514750 0.492650
0.460800 0.547575 0.528725
0.518000 0.580400 0.564800
0.575200 0.613225 0.600875
0.632400 0.646050 0.636950
0.689600 0.678875 0.673025
0.746800 0.711700 0.709100
0.319100 0.509225 0.456575
0.376300 0.542050 0.492650
0.433500 0.574875 0.528725
0.490700 0.607700 0.564800
0.547900 0.640525 0.600875
0.605100 0.673350 0.636950
0.662300 0.706175 0.673025
0.719500 0.739000 0.709100
0.776700 0.771825 0.745175
0.349000 0.569350 0.492650
0.406200 0.602175 0.528725
0.463400 0.635000 0.564800
0.520600 0.667825 0.600875
0.577800 0.700650 0.636950
0.635000 0.733475 0.673025
0.692200 0.766300 0.709100
0.749400 0.799125 0.745175
0.806600 0.831950 0.781250
0.378900 0.629475 0.528725
0.436100 0.662300 0.564800
0.493300 0.695125 0.600875
0.550500 0.727950 0.636950
0.607700 0.760775 0.673025
0.664900 0.793600 0.709100
0.722100 0.826425 0.745175
0.779300 0.859250 0.781250
0.836500 0.892075 0.817325
0.169600 0.181300 0.303500
0.226800 0.214125 0.339575
0.284000 0.246950 0.375650
0.341200 0.279775 0.411725
0.398400 0.312600 0.447800
0.455600 0.345425 0.483875
0.512800 0.378250 0.519950
0.570000 0.411075 0.556025
0.627200 0.443900 0.592100
0.199500 0.241425 0.339575
0.256700 0.274250 0.375650
0.313900 0.307075 0.411725
0.371100 0.339900 0.447800
0.428300 0.372725 0.483875
0.485500 0.405550 0.519950
0.542700 0.438375 0.556025
0.599900 0.471200 0.592100
0.657100 0.504025 0.628175
0.229400 0.301550 0.375650
0.286600 0.334375 0.411725
0.343800 0.367200 0.447800
0.401000 0.400025 0.483875
0.458200 0.432850 0.519950
0.515400 0.465675 0.556025
0.572600 0.498500 0.592100
0.629800 0.531325 0.628175
0.687000 0.564150 0.664250
0.259300 0.361675 0.411725
0.316500 0.394500 0.447800
0.373700 0.427325 0.483875
0.430900 0.460150 0.519950
0.488100 0.492975 0.556025
0.545300 0.525800 0.592100
0.602500 0.558625 0.628175
0.659700 0.591450 0.664250
0.716900 0.624275 0.700325
0.289200 0.421800 0.447800
0.346400 0.454625 0.483875
0.403600 0.487450 0.519950
0.460800 0.520275 0.556025
0.518000 0.553100 0.592100
0.575200 0.585925 0.628175
0.632400 0.618750 0.664250
0.689600 0.651575 0.700325
0.746800 0.684400 0.736400
0.319100 0.481925 0.483875
0.376300 0.514750 0.519950
0.433500 0.547575 0.556025
0.490700 0.580400 0.592100
0.547900 0.613225 0.628175
0.605100 0.646050 0.664250
0.662300 0.678875 0.700325
0.719500 0.711700 0.736400
0.776700 0.744525 0.772475
0.349000 0.542050 0.519950
0.406200 0.574875 0.556025
0.463400 0.607700 0.592100
0.520600 0.640525 0.628175
0.577800 0.673350 0.664250
0.635000 0.706175 0.700325
0.692200 0.739000 0.736400
0.749400 0.771825 0.772475
0.806600 0.804650 0.808550
0.378900 0.602175 0.556025
0.436100 0.635000 0.592100
0.493300 0.667825 0.628175
0.550500 0.700650 0.664250
0.607700 0.733475 0.700325
0.664900 0.766300 0.736400
0.722100 0.799125 0.772475
0.779300 0.831950 0.808550
0.836500 0.864775 0.844625
0.408800 0.662300 0.592100
0.466000 0.695125 0.628175
0.523200 0.727950 0.664250
0.580400 0.760775 0.700325
0.637600 0.793600 0.736400
0.694800 0.826425 0.772475
0.752000 0.859250 0.808550
0.809200 0.892075 0.844625
0.866400 0.924900 0.880700
0.199500 0.214125 0.366875
0.256700 0.246950 0.402950
0.313900 0.279775 0.439025
0.371100 0.312600 0.475100
0.428300 0.345425 0.511175
0.485500 0.378250 0.547250
0.542700 0.411075 0.583325
0.599900 0.443900 0.619400
0.657100 0.476725 0.655475
0.229400 0.274250 0.402950
0.286600 0.307075 0.439025
0.343800 0.339900 0.475100
0.401000 0.372725 0.511175
0.458200 0.405550 0.547250
0.515400 0.438375 0.583325
0.572600 0.471200 0.619400
0.629800 0.504025 0.655475
0.687000 0.536850 0.691550
0.259300 0.334375 0.439025
0.316500 0.367200 0.475100
0.373700 0.400025 0.511175
0.430900 0.432850 0.547250
0.488100 0.465675 0.583325
0.545300 0.498500 0.619400
0.602500 0.531325 0.655475
0.659700 0.564150 0.691550
0.716900 0.596975 0.727625
0.289200 0.394500 0.475100
0.346400 0.427325 0.511175
0.403600 0.460150 0.547250
0.460800 0.492975 0.583325
0.518000 0.525800 0.619400
0.575200 0.558625 0.655475
0.632400 0.591450 0.691550
0.689600 0.624275 0.727625
0.746800 0.657100 0.763700
0.319100 0.454625 0.511175
0.376300 0.487450 0.547250
0.433500 0.520275 0.583325
0.490700 0.553100 0.619400
0.547900 0.585925 0.655475
0.605100 0.618750 0.691550
0.662300 0.651575 0.727625
0.719500 0.684400 0.763700
0.776700 0.717225 0.799775
0.349000 0.514750 0.547250
0.406200 0.547575 0.583325
0.463400 0.580400 0.619400
0.520600 0.613225 0.655475
0.577800 0.646050 0.691550
0.635000 0.678875 0.727625
0.692200 0.711700 0.763700
0.749400 0.744525 0.799775
0.806600 0.777350 0.835850
0.378900 0.574875 0.583325
0.436100 0.607700 0.619400
0.493300 0.640525 0.655475
0.550500 0.673350 0.691550
0.607700 0.706175 0.727625
0.664900 0.739000 0.763700
0.722100 0.771825 0.799775
0.779300 0.804650 0.835850
0.836500 0.837475 0.871925
0.408800 0.635000 0.619400
0.466000 0.667825 0.655475
0.523200 0.700650 0.691550
0.580400 0.733475 0.727625
0.637600 0.766300 0.763700
0.694800 0.799125 0.799775
0.752000 0.831950 0.835850
0.809200 0.864775 0.871925
0.866400 0.897600 0.908000
0.438700 0.695125 0.655475
0.495900 0.727950 0.691550
0.553100 0.760775 0.727625
0.610300 0.793600 0.763700
0.667500 0.826425 0.799775
0.724700 0.859250 0.835850
0.781900 0.892075 0.871925
0.839100 0.924900 0.908000
0.896300 0.957725 0.944075
0.229400 0.246950 0.430250
0.286600 0.279775 0.466325
0.343800 0.312600 0.502400
0.401000 0.345425 0.538475
0.458200 0.378250 0.574550
0.515400 0.411075 0.610625
0.572600 0.443900 0.646700
0.629800 0.476725 0.682775
0.687000 0.509550 0.718850
0.259300 0.307075 0.466325
0.316500 0.339900 0.502400
0.373700 0.372725 0.538475
0.430900 0.405550 0.574550
0.488100 0.438375 0.610625
0.545300 0.471200 0.646700
0.602500 0.504025 0.682775
0.659700 0.536850 0.718850
0.716900 0.569675 0.754925
0.289200 0.367200 0.502400
0.346400 0.400025 0.538475
0.403600 0.432850 0.574550
0.460800 0.465675 0.610625
0.518000 0.498500 0.646700
0.575200 0.531325 0.682775
0.632400 0.564150 0.718850
0.689600 0.596975 0.754925
0.746800 0.629800 0.791000
0.319100 0.427325 0.538475
0.376300 0.460150 0.574550
0.433500 0.492975 0.610625
0.490700 0.525800 0.646700
0.547900 0.558625 0.682775
0.605100 0.591450 0.718850
0.662300 0.624275 0.754925
0.719500 0.657100 0.791000
0.776700 0.689925 0.827075
0.349000 0.487450 0.574550
0.406200 0.520275 0.610625
0.463400 0.553100 0.646700
0.520600 0.585925 0.682775
0.577800 0.618750 0.718850
0.635000 0.651575 0.754925
0.692200 0.684400 0.791000
0.749400 0.717225 0.827075
0.806600 0.750050 0.863150
0.378900 0.547575 0.610625
0.436100 0.580400 0.646700
0.493300 0.613225 0.682775
0.550500 0.646050 0.718850
0.607700 0.678875 0.754925
0.664900 0.711700 0.791000
0.722100 0.744525 0.827075
0.779300 0.777350 0.863150
0.836500 0.810175 0.899225
0.408800 0.607700 0.646700
0.466000 0.640525 0.682775
0.523200 0.673350 0.718850
0.580400 0.706175 0.754925
0.637600 0.739000 0.791000
0.694800 0.771825 0.827075
0.752000 0.804650 0.863150
0.809200 0.837475 0.899225
0.866400 0.870300 0.935300
0.438700 0.667825 0.682775
0.495900 0.700650 0.718850
0.553100 0.733475 0.754925
0.610300 0.766300 0.791000
0.667500 0.799125 0.827075
0.724700 0.831950 0.863150
0.781900 0.864775 0.899225
0.839100 0.897600 0.935300
0.896300 0.930425 0.971375
0.468600 0.727950 0.718850
0.525800 0.760775 0.754925
0.583000 0.793600 0.791000
0.640200 0.826425 0.827075
0.697400 0.859250 0.863150
0.754600 0.892075 0.899225
0.811800 0.924900 0.935300
0.869000 0.957725 0.971375
0.926200 0.990550 1.000000
0.259300 0.279775 0.493625
0.316500 0.312600 0.529700
0.373700 0.345425 0.565775
0.430900 0.378250 0.601850
0.488100 0.411075 0.637925
0.545300 0.443900 0.674000
0.602500 0.476725 0.710075
0.659700 0.509550 0.746150
0.716900 0.542375 0.782225
0.289200 0.339900 0.529700
0.346400 0.372725 0.565775
0.403600 0.405550 0.601850
0.460800 0.438375 0.637925
0.518000 0.471200 0.674000
0.575200 0.504025 0.710075
0.632400 0.536850 0.746150
0.689600 0.569675 0.782225
0.746800 0.602500 0.818300
0.319100 0.400025 0.565775
0.376300 0.432850 0.601850
0.433500 0.465675 0.637925
0.490700 0.498500 0.674000
0.547900 0.531325 0.710075
0.605100 0.564150 0.746150
0.662300 0.596975 0.782225
0.719500 0.629800 0.818300
0.776700 0.662625 0.854375
0.349000 0.460150 0.601850
0.406200 0.492975 0.637925
0.463400 0.525800 0.674000
0.520600 0.558625 0.710075
0.577800 0.591450 0.746150
0.635000 0.624275 0.782225
0.692200 0.657100 0.818300
0.749400 0.689925 0.854375
0.806600 0.722750 0.890450
0.378900 0.520275 0.637925
0.436100 0.553100 0.674000
0.493300 0.585925 0.710075
0.550500 0.618750 0.746150
0.607700 0.651575 0.782225
0.664900 0.684400 0.818300
0.722100 0.717225 0.854375
0.779300 0.750050 0.890450
0.836500 0.782875 0.926525
0.408800 0.580400 0.674000
0.466000 0.613225 0.710075
0.523200 0.646050 0.746150
0.580400 0.678875 0.782225
0.637600 0.711700 0.818300
0.694800 0.744525 0.854375
0.752000 0.777350 0.890450
0.809200 0.810175 0.926525
0.866400 0.843000 0.962600
0.438700 0.640525 0.710075
0.495900 0.673350 0.746150
0.553100 0.706175 0.782225
0.610300 0.739000 0.818300
0.667500 0.771825 0.854375
0.724700 0.804650 0.890450
0.781900 0.837475 0.926525
0.839100 0.870300 0.962600
0.896300 0.903125 0.998675
0.468600 0.700650 0.746150
0.525800 0.733475 0.782225
0.583000 0.766300 0.818300
0.640200 0.799125 0.854375
0.697400 0.831950 0.890450
0.754600 0.864775 0.926525
0.811800 0.897600 0.962600
0.869000 0.930425 0.998675
0.926200 0.963250 1.000000
0.498500 0.760775 0.782225
0.555700 0.793600 0.818300
0.612900 0.826425 0.854375
0.670100 0.859250 0.890450
0.727300 0.892075 0.926525
0.784500 0.924900 0.962600
0.841700 0.957725 0.998675
0.898900 0.990550 1.000000
0.956100 1.000000 1.000000
0.289200 0.312600 0.557000
0.346400 0.345425 0.593075
0.403600 0.378250 0.629150
0.460800 0.411075 0.665225
0.518000 0.443900 0.701300
0.575200 0.476725 0.737375
0.632400 0.509550 0.773450
0.689600 0.542375 0.809525
0.746800 0.575200 0.845600
0.319100 0.372725 0.593075
0.376300 0.405550 0.629150
0.433500 0.438375 0.665225
0.490700 0.471200 0.701300
0.547900 0.504025 0.737375
0.605100 0.536850 0.773450
0.662300 0.569675 0.809525
0.719500 0.602500 0.845600
0.776700 0.635325 0.881675
0.349000 0.432850 0.629150
0.406200 0.465675 0.665225
0.463400 0.498500 0.701300
0.520600 0.531325 0.737375
0.577800 0.564150 0.773450
0.635000 0.596975 0.809525
0.692200 0.629800 0.845600
0.749400 0.662625 0.881675
0.806600 0.695450 0.917750
0.378900 0.492975 0.665225
0.436100 0.525800 0.701300
0.493300 0.558625 0.737375
0.550500 0.591450 0.773450
0.607700 0.624275 0.809525
0.664900 0.657100 0.845600
0.722100 0.689925 0.881675
0.779300 0.722750 0.917750
0.836500 0.755575 0.953825
0.408800 0.553100 0.701300
0.466000 0.585925 0.737375
0.523200 0.618750 0.773450
0.580400 0.651575 0.809525
0.637600 0.684400 0.845600
0.694800 0.717225 0.881675
0.752000 0.750050 0.917750
0.809200 0.782875 0.953825
0.866400 0.815700 0.989900
0.438700 0.613225 0.737375
0.495900 0.646050 0.773450
0.553100 0.678875 0.809525
0.610300 0.711700 0.845600
0.667500 0.744525 0.881675
0.724700 0.777350 0.917750
0.781900 0.810175 0.953825
0.839100 0.843000 0.989900
0.896300 0.875825 1.000000
0.468600 0.673350 0.773450
0.525800 0.706175 0.809525
0.583000 0.739000 0.845600
0.640200 0.771825 0.881675
0.697400 0.804650 0.917750
0.754600 0.837475 0.953825
0.811800 0.870300 0.989900
0.869000 0.903125 1.000000
0.926200 0.935950 1.000000
0.498500 0.733475 0.809525
0.555700 0.766300 0.845600
0.612900 0.799125 0.881675
0.670100 0.831950 0.917750
0.727300 0.864775 0.953825
0.784500 0.897600 0.989900
0.841700 0.930425 1.000000
0.898900 0.963250 1.000000
0.956100 0.996075 1.000000
0.528400 0.793600 0.845600
0.585600 0.826425 0.881675
0.642800 0.859250 0.917750
0.700000 0.892075 0.953825
0.757200 0.924900 0.989900
0.814400 0.957725 1.000000
0.871600 0.990550 1.000000
0.928800 1.000000 1.000000
0.986000 1.000000 1.000000
